Assets/Nexweron/LutKit/LutPack/LUTs/3Dx16/LUTx16_Flora.cube
LUT_3D_SIZE 6
0.0000000 0.0039216 0.0039216
0.0509804 0.0000000 0.0000000
0.1843137 0.0000000 0.0000000
0.4627451 0.0000000 0.0000000
0.7058824 0.0000000 0.0000000
1.0000000 0.0000000 0.0000000
0.0000000 0.1333333 0.0000000
0.1098039 0.1254902 0.0000000
0.2235294 0.1450980 0.0000000
0.4705883 0.1490196 0.0000000
0.7019608 0.0156863 0.0000000
1.0000000 0.0000000 0.0000000
0.0352941 0.3294118 0.0000000
0.2196079 0.3333333 0.0000000
0.3372549 0.3254902 0.0000000
0.5254902 0.3333333 0.0000000
0.7333333 0.3294118 0.0000000
1.0000000 0.2941177 0.0000000
0.0000000 0.5176471 0.0000000
0.0078431 0.5176471 0.0000000
0.3450980 0.5176471 0.0000000
0.5568628 0.5215687 0.0000000
0.7764707 0.5254902 0.0000000
1.0000000 0.5098040 0.0000000
0.0000000 0.7098039 0.0000000
0.0000000 0.7058824 0.0000000
0.1960784 0.7019608 0.0000000
0.5372549 0.7137255 0.0000000
0.7921569 0.7215686 0.0000000
1.0000000 0.7176471 0.0000000
0.0000000 0.9490197 0.0000000
0.0000000 0.9490197 0.0000000
0.0000000 0.9450981 0.0000000
0.4627451 0.9490197 0.0000000
0.7725491 0.9568628 0.0000000
1.0000000 0.9568628 0.0000000
0.0000000 0.0000000 0.0823529
0.0470588 0.0000000 0.0941177
0.1764706 0.0000000 0.1058824
0.4627451 0.0000000 0.0549020
0.7058824 0.0000000 0.0000000
1.0000000 0.0000000 0.0000000
0.0000000 0.0980392 0.1019608
0.0862745 0.1098039 0.1019608
0.2196079 0.1411765 0.0862745
0.4705883 0.1450980 0.0000000
0.6980392 0.0156863 0.0000000
1.0000000 0.0000000 0.0000000
0.0274510 0.3254902 0.0156863
0.2117647 0.3294118 0.0039216
0.3372549 0.3215686 0.0000000
0.5254902 0.3333333 0.0000000
0.7333333 0.3294118 0.0000000
1.0000000 0.2941177 0.0000000
0.0000000 0.5176471 0.0000000
0.0078431 0.5176471 0.0000000
0.3450980 0.5176471 0.0000000
0.5529412 0.5215687 0.0000000
0.7764707 0.5215687 0.0000000
1.0000000 0.5098040 0.0000000
0.0000000 0.7098039 0.0000000
0.0000000 0.7058824 0.0000000
0.1960784 0.7019608 0.0000000
0.5372549 0.7137255 0.0000000
0.7921569 0.7215686 0.0000000
1.0000000 0.7176471 0.0000000
0.0000000 0.9490197 0.0000000
0.0000000 0.9490197 0.0000000
0.0000000 0.9450981 0.0000000
0.4588236 0.9490197 0.0000000
0.7725491 0.9568628 0.0000000
1.0000000 0.9568628 0.0000000
0.0000000 0.0000000 0.1607843
0.0705882 0.0000000 0.1803922
0.1686275 0.0000000 0.2156863
0.4431373 0.0000000 0.2470588
0.7058824 0.0000000 0.2627451
1.0000000 0.0000000 0.2352941
0.0000000 0.1254902 0.1960784
0.1098039 0.1254902 0.2039216
0.1921569 0.1058824 0.2196079
0.4431373 0.0941177 0.2313726
0.7019608 0.0078431 0.2509804
1.0000000 0.0000000 0.2235294
0.0000000 0.2745098 0.2352941
0.1137255 0.2823530 0.2156863
0.3098039 0.3019608 0.2274510
0.5254902 0.3215686 0.2235294
0.7333333 0.3137255 0.2078432
1.0000000 0.2745098 0.1058824
0.0000000 0.5137255 0.2352941
0.0039216 0.5137255 0.2274510
0.3372549 0.5215687 0.1921569
0.5568628 0.5176471 0.1411765
0.7725491 0.5215687 0.0705882
1.0000000 0.5098040 0.0000000
0.0000000 0.7058824 0.0039216
0.0000000 0.7058824 0.0039216
0.1882353 0.7019608 0.0000000
0.5333334 0.7137255 0.0000000
0.7882354 0.7176471 0.0000000
1.0000000 0.7137255 0.0000000
0.0000000 0.9490197 0.0000000
0.0000000 0.9490197 0.0000000
0.0000000 0.9411765 0.0000000
0.4588236 0.9450981 0.0000000
0.7725491 0.9529412 0.0000000
1.0000000 0.9529412 0.0000000
0.0117647 0.0000000 0.2705882
0.1450980 0.0000000 0.2901961
0.2235294 0.0000000 0.3333333
0.4039216 0.0000000 0.3843138
0.6862745 0.0000000 0.4235294
1.0000000 0.0000000 0.4235294
0.0078431 0.1647059 0.3019608
0.1686275 0.1529412 0.3176471
0.2470588 0.1254902 0.3411765
0.4039216 0.0156863 0.3803922
0.6823530 0.0000000 0.4196079
1.0000000 0.0000000 0.4196079
0.0000000 0.3137255 0.3725490
0.1137255 0.3137255 0.3764706
0.3333333 0.3098039 0.3843138
0.5058824 0.2901961 0.4000000
0.7254902 0.2745098 0.4078432
1.0000000 0.2117647 0.3843138
0.0000000 0.5019608 0.4313726
0.0000000 0.4980392 0.4313726
0.2823530 0.5176471 0.4039216
0.5568628 0.5137255 0.4274510
0.7803922 0.5019608 0.4235294
1.0000000 0.4627451 0.3764706
0.0000000 0.7058824 0.4549020
0.0000000 0.7058824 0.4549020
0.1372549 0.7058824 0.4313726
0.5215687 0.7215686 0.4039216
0.7960785 0.7176471 0.3960785
1.0000000 0.6980392 0.3607843
0.0000000 0.9490197 0.4274510
0.0000000 0.9450981 0.4235294
0.0000000 0.9411765 0.4117647
0.4156863 0.9490197 0.3254902
0.7607844 0.9529412 0.3019608
1.0000000 0.9490197 0.2509804
0.0901961 0.0235294 0.3764706
0.2509804 0.0156863 0.3921569
0.3372549 0.0000000 0.4352942
0.4705883 0.0000000 0.4901961
0.6823530 0.0000000 0.5411765
1.0000000 0.0000000 0.5490196
0.0627451 0.2156863 0.4039216
0.2470588 0.1921569 0.4156863
0.3450980 0.1647059 0.4431373
0.4666667 0.0156863 0.4901961
0.6784314 0.0000000 0.5372549
1.0000000 0.0000000 0.5450981
0.0196078 0.3411765 0.4784314
0.1137255 0.3333333 0.4823530
0.3647059 0.3058824 0.5058824
0.5294118 0.2862745 0.5254902
0.7215686 0.2588235 0.5490196
1.0000000 0.1843137 0.5372549
0.0000000 0.5137255 0.5568628
0.0000000 0.5098040 0.5568628
0.2745098 0.5176471 0.5725490
0.5568628 0.5058824 0.5803922
0.7764707 0.4862745 0.5882353
1.0000000 0.4352942 0.5647059
0.0000000 0.7058824 0.6078432
0.0000000 0.7019608 0.6078432
0.1176471 0.7058824 0.6039216
0.4862745 0.7215686 0.6000000
0.7960785 0.7176471 0.6196079
1.0000000 0.6862745 0.5960785
0.0000000 0.9490197 0.6313726
0.0000000 0.9490197 0.6313726
0.0000000 0.9450981 0.6274510
0.3568628 0.9490197 0.5921569
0.7294118 0.9529412 0.5882353
1.0000000 0.9490197 0.5843138
0.1176471 0.0313726 0.4980392
0.2901961 0.0235294 0.5098040
0.3921569 0.0000000 0.5529412
0.5372549 0.0000000 0.6117647
0.7176471 0.0000000 0.6627451
1.0000000 0.0000000 0.6705883
0.0862745 0.2235294 0.5137255
0.2705882 0.1960784 0.5215687
0.3921569 0.1215686 0.5529412
0.5333334 0.0156863 0.6078432
0.7137255 0.0000000 0.6588235
1.0000000 0.0000000 0.6666667
0.0235294 0.3529412 0.5960785
0.0941177 0.3450980 0.5960785
0.3647059 0.3019608 0.6196079
0.5568628 0.2823530 0.6509804
0.7372549 0.2509804 0.6784314
1.0000000 0.1647059 0.6666667
0.0000000 0.5215687 0.6784314
0.0000000 0.5215687 0.6745098
0.2627451 0.5019608 0.6862745
0.5333334 0.4705883 0.7098039
0.7843138 0.4627451 0.7215686
1.0000000 0.4235294 0.7058824
0.0000000 0.7137255 0.7294118
0.0000000 0.7098039 0.7294118
0.0980392 0.7058824 0.7254902
0.4666667 0.7058824 0.7490196
0.7882354 0.7019608 0.7607844
1.0000000 0.6784314 0.7529413
0.0000000 0.9529412 0.7725491
0.0000000 0.9490197 0.7686275
0.0000000 0.9450981 0.7686275
0.3450980 0.9490197 0.7725491
0.7215686 0.9568628 0.7843138
1.0000000 0.9529412 0.7921569
