Assets/Nexweron/LutKit/LutPack/LUTs/3Dx16/LUTx16_Adventure.cube
LUT_3D_SIZE 6
0.0000000 0.0000000 0.0000000
0.0901961 0.0000000 0.0000000
0.3450980 0.0000000 0.0000000
0.5686275 0.0000000 0.0000000
0.7764707 0.0000000 0.0000000
0.9568628 0.0000000 0.0000000
0.0000000 0.0745098 0.0000000
0.1176471 0.0784314 0.0000000
0.3725490 0.0705882 0.0000000
0.6000000 0.0666667 0.0000000
0.8117648 0.0666667 0.0000000
0.9921569 0.0823529 0.0000000
0.0000000 0.3098039 0.0000000
0.1254902 0.3294118 0.0000000
0.3764706 0.3372549 0.0000000
0.6039216 0.3411765 0.0000000
0.8156863 0.3529412 0.0000000
0.9960785 0.3647059 0.0000000
0.0000000 0.5411765 0.0000000
0.1490196 0.5568628 0.0000000
0.4000000 0.5686275 0.0000000
0.6196079 0.5764706 0.0000000
0.8274511 0.5843138 0.0000000
1.0000000 0.5960785 0.0000000
0.0000000 0.7803922 0.0000000
0.1490196 0.7960785 0.0000000
0.4078432 0.8000001 0.0000000
0.6313726 0.8000001 0.0000000
0.8352942 0.8039216 0.0000000
1.0000000 0.8078432 0.0000000
0.0000000 0.9960785 0.0000000
0.1372549 1.0000000 0.0000000
0.3882353 1.0000000 0.0000000
0.6078432 0.9960785 0.0000000
0.8156863 0.9921569 0.0000000
0.9882354 0.9921569 0.0000000
0.0000000 0.0000000 0.0666667
0.0941177 0.0000000 0.0745098
0.3450980 0.0000000 0.0705882
0.5686275 0.0000000 0.0588235
0.7764707 0.0000000 0.0588235
0.9568628 0.0000000 0.0666667
0.0000000 0.0784314 0.1019608
0.1176471 0.0823529 0.1215686
0.3725490 0.0784314 0.1254902
0.6000000 0.0705882 0.1176471
0.8117648 0.0745098 0.1215686
0.9921569 0.0901961 0.1333333
0.0000000 0.3176471 0.1176471
0.1529412 0.3294118 0.1411765
0.3803922 0.3450980 0.1529412
0.6039216 0.3529412 0.1490196
0.8156863 0.3607843 0.1411765
0.9921569 0.3725490 0.1490196
0.0000000 0.5450981 0.1372549
0.1725490 0.5607843 0.1607843
0.4196079 0.5725490 0.1686275
0.6235294 0.5803922 0.1607843
0.8274511 0.5921569 0.1529412
1.0000000 0.6039216 0.1568628
0.0000000 0.7843138 0.1333333
0.1647059 0.8000001 0.1568628
0.4196079 0.8039216 0.1647059
0.6392157 0.8039216 0.1607843
0.8352942 0.8039216 0.1568628
1.0000000 0.8117648 0.1568628
0.0000000 1.0000000 0.1215686
0.1450980 1.0000000 0.1372549
0.3921569 1.0000000 0.1372549
0.6117647 0.9960785 0.1294118
0.8196079 0.9921569 0.1294118
0.9882354 0.9921569 0.1333333
0.0000000 0.0000000 0.3215686
0.0862745 0.0000000 0.3294118
0.3411765 0.0000000 0.3254902
0.5647059 0.0000000 0.3176471
0.7725491 0.0000000 0.3176471
0.9568628 0.0000000 0.3294118
0.0000000 0.0745098 0.3686275
0.1137255 0.0823529 0.3803922
0.3686275 0.0784314 0.3843138
0.5960785 0.0745098 0.3803922
0.8078432 0.0784314 0.3803922
0.9921569 0.0941177 0.3921569
0.0000000 0.3215686 0.3647059
0.1450980 0.3372549 0.3764706
0.3882353 0.3490196 0.4039216
0.6000000 0.3568628 0.4039216
0.8117648 0.3647059 0.4000000
0.9921569 0.3803922 0.4000000
0.0000000 0.5529412 0.3803922
0.1764706 0.5607843 0.4039216
0.4470589 0.5647059 0.4235294
0.6274510 0.5843138 0.4196079
0.8156863 0.5960785 0.4039216
0.9921569 0.6078432 0.4078432
0.0000000 0.7882354 0.3843138
0.1725490 0.8000001 0.4039216
0.4352942 0.8000001 0.4117647
0.6470588 0.8000001 0.4156863
0.8352942 0.8039216 0.4117647
0.9960785 0.8117648 0.4078432
0.0000000 1.0000000 0.3686275
0.1490196 1.0000000 0.3764706
0.3960785 1.0000000 0.3764706
0.6156863 0.9921569 0.3764706
0.8156863 0.9921569 0.3764706
0.9882354 0.9882354 0.3843138
0.0000000 0.0000000 0.5686275
0.0784314 0.0000000 0.5725490
0.3333333 0.0000000 0.5725490
0.5607843 0.0000000 0.5686275
0.7686275 0.0000000 0.5686275
0.9529412 0.0000000 0.5803922
0.0000000 0.0705882 0.6196079
0.1058824 0.0784314 0.6274510
0.3607843 0.0784314 0.6313726
0.5921569 0.0745098 0.6274510
0.8039216 0.0784314 0.6274510
0.9882354 0.0941177 0.6352941
0.0000000 0.3215686 0.6196079
0.1254902 0.3411765 0.6274510
0.3725490 0.3529412 0.6392157
0.5960785 0.3568628 0.6470588
0.8078432 0.3647059 0.6392157
0.9921569 0.3803922 0.6431373
0.0000000 0.5568628 0.6235294
0.1568628 0.5686275 0.6392157
0.4313726 0.5725490 0.6431373
0.6156863 0.5921569 0.6392157
0.7960785 0.6039216 0.6313726
0.9882354 0.6117647 0.6392157
0.0000000 0.7882354 0.6235294
0.1686275 0.8000001 0.6392157
0.4352942 0.8000001 0.6431373
0.6627451 0.7921569 0.6509804
0.8313726 0.8000001 0.6509804
0.9882354 0.8078432 0.6431373
0.0000000 0.9960785 0.6039216
0.1450980 1.0000000 0.6117647
0.3960785 0.9960785 0.6078432
0.6196079 0.9921569 0.6039216
0.8156863 0.9882354 0.6117647
0.9882354 0.9882354 0.6078432
0.0000000 0.0000000 0.7921569
0.0745098 0.0000000 0.8000001
0.3254902 0.0000000 0.8000001
0.5568628 0.0000000 0.7921569
0.7647060 0.0000000 0.7960785
0.9529412 0.0000000 0.8039216
0.0000000 0.0666667 0.8431373
0.1019608 0.0745098 0.8549020
0.3568628 0.0784314 0.8549020
0.5882353 0.0745098 0.8509805
0.8039216 0.0784314 0.8470589
0.9882354 0.0941177 0.8549020
0.0000000 0.3254902 0.8509805
0.1137255 0.3450980 0.8549020
0.3686275 0.3568628 0.8588236
0.5921569 0.3607843 0.8588236
0.8039216 0.3686275 0.8588236
0.9921569 0.3803922 0.8627452
0.0000000 0.5607843 0.8470589
0.1372549 0.5764706 0.8588236
0.3960785 0.5843138 0.8588236
0.6000000 0.5960785 0.8470589
0.7960785 0.6039216 0.8509805
0.9843138 0.6117647 0.8549020
0.0000000 0.7921569 0.8509805
0.1568628 0.8039216 0.8627452
0.4196079 0.8039216 0.8588236
0.6509804 0.7960785 0.8549020
0.8196079 0.8039216 0.8509805
0.9764706 0.8117648 0.8509805
0.0000000 0.9960785 0.8313726
0.1411765 1.0000000 0.8352942
0.3921569 0.9960785 0.8274511
0.6196079 0.9882354 0.8156863
0.8196079 0.9843138 0.8196079
0.9882354 0.9843138 0.8117648
0.0000000 0.0000000 0.9843138
0.0705882 0.0000000 0.9882354
0.3254902 0.0000000 0.9882354
0.5529412 0.0000000 0.9803922
0.7647060 0.0000000 0.9803922
0.9529412 0.0000000 0.9882354
0.0000000 0.0666667 1.0000000
0.0980392 0.0784314 1.0000000
0.3568628 0.0784314 1.0000000
0.5882353 0.0784314 1.0000000
0.8039216 0.0862745 1.0000000
0.9882354 0.1019608 1.0000000
0.0000000 0.3294118 1.0000000
0.1137255 0.3529412 1.0000000
0.3686275 0.3607843 1.0000000
0.5921569 0.3647059 1.0000000
0.8039216 0.3725490 1.0000000
0.9921569 0.3843138 1.0000000
0.0000000 0.5686275 1.0000000
0.1294118 0.5843138 1.0000000
0.3843138 0.5960785 1.0000000
0.6039216 0.6000000 1.0000000
0.8000001 0.6078432 1.0000000
0.9882354 0.6156863 1.0000000
0.0000000 0.7960785 1.0000000
0.1490196 0.8078432 1.0000000
0.4039216 0.8078432 1.0000000
0.6274510 0.8039216 1.0000000
0.8117648 0.8078432 1.0000000
0.9764706 0.8117648 1.0000000
0.0000000 0.9960785 1.0000000
0.1372549 1.0000000 1.0000000
0.3882353 0.9960785 1.0000000
0.6117647 0.9882354 0.9960785
0.8196079 0.9843138 0.9921569
0.9882354 0.9843138 0.9882354
