Assets/Nexweron/LutKit/LutPack/LUTs/3Dx32/LUTx32_Epic.cube
LUT_3D_SIZE 32
0.0000000 0.0000000 0.0000000
0.0117647 0.0000000 0.0000000
0.0235294 0.0000000 0.0000000
0.0392157 0.0000000 0.0000000
0.0588235 0.0000000 0.0000000
0.0745098 0.0000000 0.0000000
0.0980392 0.0000000 0.0000000
0.1333333 0.0000000 0.0000000
0.1686275 0.0000000 0.0000000
0.2078432 0.0000000 0.0000000
0.2470588 0.0000000 0.0000000
0.2901961 0.0000000 0.0000000
0.3254902 0.0000000 0.0000000
0.3568628 0.0000000 0.0000000
0.3921569 0.0000000 0.0000000
0.4235294 0.0000000 0.0000000
0.4549020 0.0000000 0.0000000
0.4823530 0.0000000 0.0000000
0.5098040 0.0000000 0.0000000
0.5333334 0.0000000 0.0000000
0.5607843 0.0000000 0.0000000
0.5843138 0.0000000 0.0000000
0.6156863 0.0000000 0.0000000
0.6470588 0.0000000 0.0000000
0.6784314 0.0000000 0.0000000
0.7254902 0.0000000 0.0000000
0.7725491 0.0000000 0.0000000
0.8196079 0.0000000 0.0000000
0.8627452 0.0000000 0.0000000
0.9058824 0.0000000 0.0000000
0.9450981 0.0000000 0.0000000
0.9803922 0.0000000 0.0000000
0.0000000 0.0039216 0.0000000
0.0117647 0.0039216 0.0000000
0.0235294 0.0039216 0.0000000
0.0392157 0.0039216 0.0000000
0.0588235 0.0039216 0.0000000
0.0745098 0.0039216 0.0000000
0.0980392 0.0039216 0.0000000
0.1333333 0.0039216 0.0000000
0.1686275 0.0039216 0.0000000
0.2078432 0.0039216 0.0000000
0.2470588 0.0039216 0.0000000
0.2901961 0.0039216 0.0000000
0.3254902 0.0039216 0.0000000
0.3568628 0.0039216 0.0000000
0.3921569 0.0039216 0.0000000
0.4235294 0.0039216 0.0000000
0.4549020 0.0039216 0.0000000
0.4823530 0.0039216 0.0000000
0.5098040 0.0039216 0.0000000
0.5333334 0.0039216 0.0000000
0.5607843 0.0039216 0.0000000
0.5843138 0.0039216 0.0000000
0.6156863 0.0039216 0.0000000
0.6470588 0.0039216 0.0000000
0.6784314 0.0039216 0.0000000
0.7254902 0.0039216 0.0000000
0.7725491 0.0039216 0.0000000
0.8196079 0.0039216 0.0000000
0.8627452 0.0039216 0.0000000
0.9058824 0.0039216 0.0000000
0.9450981 0.0039216 0.0000000
0.9803922 0.0039216 0.0000000
0.0000000 0.0117647 0.0000000
0.0117647 0.0117647 0.0000000
0.0235294 0.0117647 0.0000000
0.0392157 0.0117647 0.0000000
0.0588235 0.0117647 0.0000000
0.0745098 0.0117647 0.0000000
0.0980392 0.0117647 0.0000000
0.1333333 0.0117647 0.0000000
0.1686275 0.0117647 0.0000000
0.2078432 0.0117647 0.0000000
0.2470588 0.0117647 0.0000000
0.2901961 0.0117647 0.0000000
0.3254902 0.0117647 0.0000000
0.3568628 0.0117647 0.0000000
0.3921569 0.0117647 0.0000000
0.4235294 0.0117647 0.0000000
0.4549020 0.0117647 0.0000000
0.4823530 0.0117647 0.0000000
0.5098040 0.0117647 0.0000000
0.5333334 0.0117647 0.0000000
0.5607843 0.0117647 0.0000000
0.5843138 0.0117647 0.0000000
0.6156863 0.0117647 0.0000000
0.6470588 0.0117647 0.0000000
0.6784314 0.0117647 0.0000000
0.7254902 0.0117647 0.0000000
0.7725491 0.0117647 0.0000000
0.8196079 0.0117647 0.0000000
0.8627452 0.0117647 0.0000000
0.9058824 0.0117647 0.0000000
0.9450981 0.0117647 0.0000000
0.9803922 0.0117647 0.0000000
0.0000000 0.0235294 0.0000000
0.0117647 0.0235294 0.0000000
0.0235294 0.0235294 0.0000000
0.0392157 0.0235294 0.0000000
0.0588235 0.0235294 0.0000000
0.0745098 0.0235294 0.0000000
0.0980392 0.0235294 0.0000000
0.1333333 0.0235294 0.0000000
0.1686275 0.0235294 0.0000000
0.2078432 0.0235294 0.0000000
0.2470588 0.0235294 0.0000000
0.2901961 0.0235294 0.0000000
0.3254902 0.0235294 0.0000000
0.3568628 0.0235294 0.0000000
0.3921569 0.0235294 0.0000000
0.4235294 0.0235294 0.0000000
0.4549020 0.0235294 0.0000000
0.4823530 0.0235294 0.0000000
0.5098040 0.0235294 0.0000000
0.5333334 0.0235294 0.0000000
0.5607843 0.0235294 0.0000000
0.5843138 0.0235294 0.0000000
0.6156863 0.0235294 0.0000000
0.6470588 0.0235294 0.0000000
0.6784314 0.0235294 0.0000000
0.7254902 0.0235294 0.0000000
0.7725491 0.0235294 0.0000000
0.8196079 0.0235294 0.0000000
0.8627452 0.0235294 0.0000000
0.9058824 0.0235294 0.0000000
0.9450981 0.0235294 0.0000000
0.9803922 0.0235294 0.0000000
0.0000000 0.0392157 0.0000000
0.0117647 0.0392157 0.0000000
0.0235294 0.0392157 0.0000000
0.0392157 0.0392157 0.0000000
0.0588235 0.0392157 0.0000000
0.0745098 0.0392157 0.0000000
0.0980392 0.0392157 0.0000000
0.1333333 0.0392157 0.0000000
0.1686275 0.0392157 0.0000000
0.2078432 0.0392157 0.0000000
0.2470588 0.0392157 0.0000000
0.2901961 0.0392157 0.0000000
0.3254902 0.0392157 0.0000000
0.3568628 0.0392157 0.0000000
0.3921569 0.0392157 0.0000000
0.4235294 0.0392157 0.0000000
0.4549020 0.0392157 0.0000000
0.4823530 0.0392157 0.0000000
0.5098040 0.0392157 0.0000000
0.5333334 0.0392157 0.0000000
0.5607843 0.0392157 0.0000000
0.5843138 0.0392157 0.0000000
0.6156863 0.0392157 0.0000000
0.6470588 0.0392157 0.0000000
0.6784314 0.0392157 0.0000000
0.7254902 0.0392157 0.0000000
0.7725491 0.0392157 0.0000000
0.8196079 0.0392157 0.0000000
0.8627452 0.0392157 0.0000000
0.9058824 0.0392157 0.0000000
0.9450981 0.0392157 0.0000000
0.9803922 0.0392157 0.0000000
0.0000000 0.0627451 0.0000000
0.0117647 0.0627451 0.0000000
0.0235294 0.0627451 0.0000000
0.0392157 0.0627451 0.0000000
0.0588235 0.0627451 0.0000000
0.0745098 0.0627451 0.0000000
0.0980392 0.0627451 0.0000000
0.1333333 0.0627451 0.0000000
0.1686275 0.0627451 0.0000000
0.2078432 0.0627451 0.0000000
0.2470588 0.0627451 0.0000000
0.2901961 0.0627451 0.0000000
0.3254902 0.0627451 0.0000000
0.3568628 0.0627451 0.0000000
0.3921569 0.0627451 0.0000000
0.4235294 0.0627451 0.0000000
0.4549020 0.0627451 0.0000000
0.4823530 0.0627451 0.0000000
0.5098040 0.0627451 0.0000000
0.5333334 0.0627451 0.0000000
0.5607843 0.0627451 0.0000000
0.5843138 0.0627451 0.0000000
0.6156863 0.0627451 0.0000000
0.6470588 0.0627451 0.0000000
0.6784314 0.0627451 0.0000000
0.7254902 0.0627451 0.0000000
0.7725491 0.0627451 0.0000000
0.8196079 0.0627451 0.0000000
0.8627452 0.0627451 0.0000000
0.9058824 0.0627451 0.0000000
0.9450981 0.0627451 0.0000000
0.9803922 0.0627451 0.0000000
0.0000000 0.0980392 0.0000000
0.0117647 0.0980392 0.0000000
0.0235294 0.0980392 0.0000000
0.0392157 0.0980392 0.0000000
0.0588235 0.0980392 0.0000000
0.0745098 0.0980392 0.0000000
0.0980392 0.0980392 0.0000000
0.1333333 0.0980392 0.0000000
0.1686275 0.0980392 0.0000000
0.2078432 0.0980392 0.0000000
0.2470588 0.0980392 0.0000000
0.2901961 0.0980392 0.0000000
0.3254902 0.0980392 0.0000000
0.3568628 0.0980392 0.0000000
0.3921569 0.0980392 0.0000000
0.4235294 0.0980392 0.0000000
0.4549020 0.0980392 0.0000000
0.4823530 0.0980392 0.0000000
0.5098040 0.0980392 0.0000000
0.5333334 0.0980392 0.0000000
0.5607843 0.0980392 0.0000000
0.5843138 0.0980392 0.0000000
0.6156863 0.0980392 0.0000000
0.6470588 0.0980392 0.0000000
0.6784314 0.0980392 0.0000000
0.7254902 0.0980392 0.0000000
0.7725491 0.0980392 0.0000000
0.8196079 0.0980392 0.0000000
0.8627452 0.0980392 0.0000000
0.9058824 0.0980392 0.0000000
0.9450981 0.0980392 0.0000000
0.9803922 0.0980392 0.0000000
0.0000000 0.1254902 0.0000000
0.0117647 0.1254902 0.0000000
0.0235294 0.1254902 0.0000000
0.0392157 0.1254902 0.0000000
0.0588235 0.1254902 0.0000000
0.0745098 0.1254902 0.0000000
0.0980392 0.1254902 0.0000000
0.1333333 0.1254902 0.0000000
0.1686275 0.1254902 0.0000000
0.2078432 0.1254902 0.0000000
0.2470588 0.1254902 0.0000000
0.2901961 0.1254902 0.0000000
0.3254902 0.1254902 0.0000000
0.3568628 0.1254902 0.0000000
0.3921569 0.1254902 0.0000000
0.4235294 0.1254902 0.0000000
0.4549020 0.1254902 0.0000000
0.4823530 0.1254902 0.0000000
0.5098040 0.1254902 0.0000000
0.5333334 0.1254902 0.0000000
0.5607843 0.1254902 0.0000000
0.5843138 0.1254902 0.0000000
0.6156863 0.1254902 0.0000000
0.6470588 0.1254902 0.0000000
0.6784314 0.1254902 0.0000000
0.7254902 0.1254902 0.0000000
0.7725491 0.1254902 0.0000000
0.8196079 0.1254902 0.0000000
0.8627452 0.1254902 0.0000000
0.9058824 0.1254902 0.0000000
0.9450981 0.1254902 0.0000000
0.9803922 0.1254902 0.0000000
0.0000000 0.1529412 0.0000000
0.0117647 0.1529412 0.0000000
0.0235294 0.1529412 0.0000000
0.0392157 0.1529412 0.0000000
0.0588235 0.1529412 0.0000000
0.0745098 0.1529412 0.0000000
0.0980392 0.1529412 0.0000000
0.1333333 0.1529412 0.0000000
0.1686275 0.1529412 0.0000000
0.2078432 0.1529412 0.0000000
0.2470588 0.1529412 0.0000000
0.2901961 0.1529412 0.0000000
0.3254902 0.1529412 0.0000000
0.3568628 0.1529412 0.0000000
0.3921569 0.1529412 0.0000000
0.4235294 0.1529412 0.0000000
0.4549020 0.1529412 0.0000000
0.4823530 0.1529412 0.0000000
0.5098040 0.1529412 0.0000000
0.5333334 0.1529412 0.0000000
0.5607843 0.1529412 0.0000000
0.5843138 0.1529412 0.0000000
0.6156863 0.1529412 0.0000000
0.6470588 0.1529412 0.0000000
0.6784314 0.1529412 0.0000000
0.7254902 0.1529412 0.0000000
0.7725491 0.1529412 0.0000000
0.8196079 0.1529412 0.0000000
0.8627452 0.1529412 0.0000000
0.9058824 0.1529412 0.0000000
0.9450981 0.1529412 0.0000000
0.9803922 0.1529412 0.0000000
0.0000000 0.1882353 0.0000000
0.0117647 0.1882353 0.0000000
0.0235294 0.1882353 0.0000000
0.0392157 0.1882353 0.0000000
0.0588235 0.1882353 0.0000000
0.0745098 0.1882353 0.0000000
0.0980392 0.1882353 0.0000000
0.1333333 0.1882353 0.0000000
0.1686275 0.1882353 0.0000000
0.2078432 0.1882353 0.0000000
0.2470588 0.1882353 0.0000000
0.2901961 0.1882353 0.0000000
0.3254902 0.1882353 0.0000000
0.3568628 0.1882353 0.0000000
0.3921569 0.1882353 0.0000000
0.4235294 0.1882353 0.0000000
0.4549020 0.1882353 0.0000000
0.4823530 0.1882353 0.0000000
0.5098040 0.1882353 0.0000000
0.5333334 0.1882353 0.0000000
0.5607843 0.1882353 0.0000000
0.5843138 0.1882353 0.0000000
0.6156863 0.1882353 0.0000000
0.6470588 0.1882353 0.0000000
0.6784314 0.1882353 0.0000000
0.7254902 0.1882353 0.0000000
0.7725491 0.1882353 0.0000000
0.8196079 0.1882353 0.0000000
0.8627452 0.1882353 0.0000000
0.9058824 0.1882353 0.0000000
0.9450981 0.1882353 0.0000000
0.9803922 0.1882353 0.0000000
0.0000000 0.2235294 0.0000000
0.0117647 0.2235294 0.0000000
0.0235294 0.2235294 0.0000000
0.0392157 0.2235294 0.0000000
0.0588235 0.2235294 0.0000000
0.0745098 0.2235294 0.0000000
0.0980392 0.2235294 0.0000000
0.1333333 0.2235294 0.0000000
0.1686275 0.2235294 0.0000000
0.2078432 0.2235294 0.0000000
0.2470588 0.2235294 0.0000000
0.2901961 0.2235294 0.0000000
0.3254902 0.2235294 0.0000000
0.3568628 0.2235294 0.0000000
0.3921569 0.2235294 0.0000000
0.4235294 0.2235294 0.0000000
0.4549020 0.2235294 0.0000000
0.4823530 0.2235294 0.0000000
0.5098040 0.2235294 0.0000000
0.5333334 0.2235294 0.0000000
0.5607843 0.2235294 0.0000000
0.5843138 0.2235294 0.0000000
0.6156863 0.2235294 0.0000000
0.6470588 0.2235294 0.0000000
0.6784314 0.2235294 0.0000000
0.7254902 0.2235294 0.0000000
0.7725491 0.2235294 0.0000000
0.8196079 0.2235294 0.0000000
0.8627452 0.2235294 0.0000000
0.9058824 0.2235294 0.0000000
0.9450981 0.2235294 0.0000000
0.9803922 0.2235294 0.0000000
0.0000000 0.2588235 0.0000000
0.0117647 0.2588235 0.0000000
0.0235294 0.2588235 0.0000000
0.0392157 0.2588235 0.0000000
0.0588235 0.2588235 0.0000000
0.0745098 0.2588235 0.0000000
0.0980392 0.2588235 0.0000000
0.1333333 0.2588235 0.0000000
0.1686275 0.2588235 0.0000000
0.2078432 0.2588235 0.0000000
0.2470588 0.2588235 0.0000000
0.2901961 0.2588235 0.0000000
0.3254902 0.2588235 0.0000000
0.3568628 0.2588235 0.0000000
0.3921569 0.2588235 0.0000000
0.4235294 0.2588235 0.0000000
0.4549020 0.2588235 0.0000000
0.4823530 0.2588235 0.0000000
0.5098040 0.2588235 0.0000000
0.5333334 0.2588235 0.0000000
0.5607843 0.2588235 0.0000000
0.5843138 0.2588235 0.0000000
0.6156863 0.2588235 0.0000000
0.6470588 0.2588235 0.0000000
0.6784314 0.2588235 0.0000000
0.7254902 0.2588235 0.0000000
0.7764707 0.2588235 0.0000000
0.8196079 0.2588235 0.0000000
0.8627452 0.2588235 0.0000000
0.9058824 0.2588235 0.0000000
0.9450981 0.2588235 0.0000000
0.9803922 0.2588235 0.0000000
0.0000000 0.3058824 0.0000000
0.0117647 0.3058824 0.0000000
0.0235294 0.3058824 0.0000000
0.0392157 0.3058824 0.0000000
0.0588235 0.3058824 0.0000000
0.0745098 0.3058824 0.0000000
0.0980392 0.3058824 0.0000000
0.1333333 0.3058824 0.0000000
0.1686275 0.3058824 0.0000000
0.2078432 0.3058824 0.0000000
0.2470588 0.3058824 0.0000000
0.2901961 0.3058824 0.0000000
0.3254902 0.3058824 0.0000000
0.3568628 0.3058824 0.0000000
0.3921569 0.3058824 0.0000000
0.4235294 0.3058824 0.0000000
0.4549020 0.3058824 0.0000000
0.4823530 0.3058824 0.0000000
0.5098040 0.3058824 0.0000000
0.5333334 0.3058824 0.0000000
0.5607843 0.3058824 0.0000000
0.5843138 0.3058824 0.0000000
0.6156863 0.3058824 0.0000000
0.6470588 0.3058824 0.0000000
0.6784314 0.3058824 0.0000000
0.7254902 0.3058824 0.0000000
0.7764707 0.3058824 0.0000000
0.8196079 0.3058824 0.0000000
0.8627452 0.3058824 0.0000000
0.9058824 0.3058824 0.0000000
0.9450981 0.3058824 0.0000000
0.9803922 0.3058824 0.0000000
0.0000000 0.3529412 0.0000000
0.0117647 0.3529412 0.0000000
0.0235294 0.3529412 0.0000000
0.0392157 0.3529412 0.0000000
0.0588235 0.3529412 0.0000000
0.0745098 0.3529412 0.0000000
0.0980392 0.3529412 0.0000000
0.1333333 0.3529412 0.0000000
0.1686275 0.3529412 0.0000000
0.2078432 0.3529412 0.0000000
0.2470588 0.3529412 0.0000000
0.2901961 0.3529412 0.0000000
0.3254902 0.3529412 0.0000000
0.3568628 0.3529412 0.0000000
0.3921569 0.3529412 0.0000000
0.4235294 0.3529412 0.0000000
0.4549020 0.3529412 0.0000000
0.4823530 0.3529412 0.0000000
0.5098040 0.3529412 0.0000000
0.5333334 0.3529412 0.0000000
0.5607843 0.3529412 0.0000000
0.5843138 0.3529412 0.0000000
0.6156863 0.3529412 0.0000000
0.6470588 0.3529412 0.0000000
0.6784314 0.3529412 0.0000000
0.7254902 0.3529412 0.0000000
0.7764707 0.3529412 0.0000000
0.8196079 0.3529412 0.0000000
0.8627452 0.3529412 0.0000000
0.9058824 0.3529412 0.0000000
0.9450981 0.3529412 0.0000000
0.9803922 0.3529412 0.0000000
0.0000000 0.4000000 0.0000000
0.0117647 0.4000000 0.0000000
0.0235294 0.4000000 0.0000000
0.0392157 0.4000000 0.0000000
0.0588235 0.4000000 0.0000000
0.0745098 0.4000000 0.0000000
0.0980392 0.4000000 0.0000000
0.1333333 0.4000000 0.0000000
0.1686275 0.4039216 0.0000000
0.2078432 0.4039216 0.0000000
0.2470588 0.4039216 0.0000000
0.2901961 0.4039216 0.0000000
0.3254902 0.4039216 0.0000000
0.3568628 0.4039216 0.0000000
0.3921569 0.4039216 0.0000000
0.4235294 0.4039216 0.0000000
0.4549020 0.4039216 0.0000000
0.4823530 0.4000000 0.0000000
0.5098040 0.4000000 0.0000000
0.5333334 0.4000000 0.0000000
0.5607843 0.4000000 0.0000000
0.5843138 0.4000000 0.0000000
0.6156863 0.4000000 0.0000000
0.6470588 0.4000000 0.0000000
0.6784314 0.4000000 0.0000000
0.7254902 0.4000000 0.0000000
0.7764707 0.4000000 0.0000000
0.8196079 0.4000000 0.0000000
0.8627452 0.4000000 0.0000000
0.9058824 0.4000000 0.0000000
0.9450981 0.4000000 0.0000000
0.9803922 0.4000000 0.0000000
0.0000000 0.4509804 0.0000000
0.0117647 0.4509804 0.0000000
0.0235294 0.4509804 0.0000000
0.0392157 0.4509804 0.0000000
0.0588235 0.4509804 0.0000000
0.0745098 0.4509804 0.0000000
0.0980392 0.4509804 0.0000000
0.1333333 0.4509804 0.0000000
0.1686275 0.4509804 0.0000000
0.2078432 0.4509804 0.0000000
0.2470588 0.4509804 0.0000000
0.2901961 0.4509804 0.0000000
0.3254902 0.4509804 0.0000000
0.3568628 0.4509804 0.0000000
0.3921569 0.4509804 0.0000000
0.4235294 0.4509804 0.0000000
0.4549020 0.4509804 0.0000000
0.4823530 0.4509804 0.0000000
0.5098040 0.4509804 0.0000000
0.5333334 0.4509804 0.0000000
0.5607843 0.4509804 0.0000000
0.5843138 0.4509804 0.0000000
0.6156863 0.4509804 0.0000000
0.6470588 0.4509804 0.0000000
0.6784314 0.4509804 0.0000000
0.7254902 0.4509804 0.0000000
0.7725491 0.4509804 0.0000000
0.8196079 0.4509804 0.0000000
0.8627452 0.4509804 0.0000000
0.9058824 0.4509804 0.0000000
0.9450981 0.4509804 0.0000000
0.9803922 0.4509804 0.0000000
0.0000000 0.4980392 0.0000000
0.0117647 0.4980392 0.0000000
0.0235294 0.4980392 0.0000000
0.0392157 0.4980392 0.0000000
0.0588235 0.4980392 0.0000000
0.0745098 0.4980392 0.0000000
0.0980392 0.4980392 0.0000000
0.1333333 0.4980392 0.0000000
0.1686275 0.4980392 0.0000000
0.2078432 0.4980392 0.0000000
0.2470588 0.4980392 0.0000000
0.2901961 0.4980392 0.0000000
0.3254902 0.4980392 0.0000000
0.3568628 0.4980392 0.0000000
0.3921569 0.4980392 0.0000000
0.4235294 0.4980392 0.0000000
0.4549020 0.4980392 0.0000000
0.4823530 0.4980392 0.0000000
0.5098040 0.4980392 0.0000000
0.5333334 0.4980392 0.0000000
0.5607843 0.4980392 0.0000000
0.5843138 0.4980392 0.0000000
0.6156863 0.4980392 0.0000000
0.6470588 0.4980392 0.0000000
0.6784314 0.4980392 0.0000000
0.7254902 0.4980392 0.0000000
0.7725491 0.4980392 0.0000000
0.8196079 0.4980392 0.0000000
0.8627452 0.4980392 0.0000000
0.9058824 0.4980392 0.0000000
0.9450981 0.4980392 0.0000000
0.9803922 0.4980392 0.0000000
0.0000000 0.5450981 0.0000000
0.0117647 0.5450981 0.0000000
0.0235294 0.5450981 0.0000000
0.0392157 0.5450981 0.0000000
0.0588235 0.5450981 0.0000000
0.0745098 0.5450981 0.0000000
0.0980392 0.5450981 0.0000000
0.1333333 0.5450981 0.0000000
0.1686275 0.5450981 0.0000000
0.2078432 0.5450981 0.0000000
0.2470588 0.5450981 0.0000000
0.2901961 0.5450981 0.0000000
0.3254902 0.5450981 0.0000000
0.3568628 0.5450981 0.0000000
0.3921569 0.5450981 0.0000000
0.4235294 0.5450981 0.0000000
0.4509804 0.5450981 0.0000000
0.4823530 0.5450981 0.0000000
0.5098040 0.5450981 0.0000000
0.5333334 0.5450981 0.0000000
0.5607843 0.5450981 0.0000000
0.5843138 0.5450981 0.0000000
0.6156863 0.5450981 0.0000000
0.6470588 0.5450981 0.0000000
0.6784314 0.5450981 0.0000000
0.7254902 0.5450981 0.0000000
0.7725491 0.5450981 0.0000000
0.8196079 0.5450981 0.0000000
0.8627452 0.5450981 0.0000000
0.9058824 0.5450981 0.0000000
0.9450981 0.5450981 0.0000000
0.9803922 0.5450981 0.0000000
0.0000000 0.5882353 0.0000000
0.0117647 0.5882353 0.0000000
0.0235294 0.5882353 0.0000000
0.0392157 0.5882353 0.0000000
0.0588235 0.5882353 0.0000000
0.0745098 0.5882353 0.0000000
0.0980392 0.5882353 0.0000000
0.1333333 0.5882353 0.0000000
0.1686275 0.5882353 0.0000000
0.2078432 0.5882353 0.0000000
0.2470588 0.5882353 0.0000000
0.2901961 0.5882353 0.0000000
0.3254902 0.5882353 0.0000000
0.3568628 0.5882353 0.0000000
0.3921569 0.5882353 0.0000000
0.4235294 0.5882353 0.0000000
0.4549020 0.5882353 0.0000000
0.4823530 0.5882353 0.0000000
0.5098040 0.5882353 0.0000000
0.5333334 0.5882353 0.0000000
0.5607843 0.5882353 0.0000000
0.5843138 0.5882353 0.0000000
0.6156863 0.5882353 0.0000000
0.6470588 0.5882353 0.0000000
0.6784314 0.5882353 0.0000000
0.7254902 0.5882353 0.0000000
0.7725491 0.5882353 0.0000000
0.8196079 0.5882353 0.0000000
0.8627452 0.5882353 0.0000000
0.9058824 0.5882353 0.0000000
0.9450981 0.5882353 0.0000000
0.9803922 0.5882353 0.0000000
0.0000000 0.6313726 0.0000000
0.0117647 0.6313726 0.0000000
0.0235294 0.6313726 0.0000000
0.0392157 0.6313726 0.0000000
0.0588235 0.6313726 0.0000000
0.0745098 0.6313726 0.0000000
0.0980392 0.6313726 0.0000000
0.1333333 0.6313726 0.0000000
0.1686275 0.6313726 0.0000000
0.2078432 0.6313726 0.0000000
0.2470588 0.6313726 0.0000000
0.2901961 0.6313726 0.0000000
0.3254902 0.6313726 0.0000000
0.3568628 0.6313726 0.0000000
0.3921569 0.6313726 0.0000000
0.4235294 0.6313726 0.0000000
0.4549020 0.6313726 0.0000000
0.4823530 0.6313726 0.0000000
0.5098040 0.6313726 0.0000000
0.5333334 0.6313726 0.0000000
0.5607843 0.6313726 0.0000000
0.5843138 0.6313726 0.0000000
0.6156863 0.6313726 0.0000000
0.6470588 0.6313726 0.0000000
0.6784314 0.6313726 0.0000000
0.7254902 0.6313726 0.0000000
0.7725491 0.6313726 0.0000000
0.8196079 0.6313726 0.0000000
0.8627452 0.6313726 0.0000000
0.9058824 0.6313726 0.0000000
0.9450981 0.6313726 0.0000000
0.9803922 0.6313726 0.0000000
0.0000000 0.6745098 0.0000000
0.0117647 0.6745098 0.0000000
0.0235294 0.6745098 0.0000000
0.0392157 0.6745098 0.0000000
0.0588235 0.6745098 0.0000000
0.0745098 0.6745098 0.0000000
0.0980392 0.6745098 0.0000000
0.1333333 0.6745098 0.0000000
0.1686275 0.6745098 0.0000000
0.2078432 0.6745098 0.0000000
0.2470588 0.6745098 0.0000000
0.2901961 0.6745098 0.0000000
0.3254902 0.6745098 0.0000000
0.3568628 0.6745098 0.0000000
0.3921569 0.6745098 0.0000000
0.4235294 0.6745098 0.0000000
0.4549020 0.6745098 0.0000000
0.4823530 0.6745098 0.0000000
0.5098040 0.6745098 0.0000000
0.5333334 0.6745098 0.0000000
0.5607843 0.6745098 0.0000000
0.5843138 0.6745098 0.0000000
0.6156863 0.6745098 0.0000000
0.6470588 0.6745098 0.0000000
0.6784314 0.6745098 0.0000000
0.7254902 0.6745098 0.0000000
0.7725491 0.6745098 0.0000000
0.8196079 0.6745098 0.0000000
0.8627452 0.6745098 0.0000000
0.9058824 0.6745098 0.0000000
0.9450981 0.6745098 0.0000000
0.9803922 0.6745098 0.0000000
0.0000000 0.7137255 0.0000000
0.0117647 0.7137255 0.0000000
0.0235294 0.7137255 0.0000000
0.0392157 0.7137255 0.0000000
0.0588235 0.7137255 0.0000000
0.0745098 0.7137255 0.0000000
0.0980392 0.7137255 0.0000000
0.1333333 0.7137255 0.0000000
0.1686275 0.7137255 0.0000000
0.2078432 0.7137255 0.0000000
0.2470588 0.7137255 0.0000000
0.2901961 0.7137255 0.0000000
0.3254902 0.7137255 0.0000000
0.3568628 0.7137255 0.0000000
0.3921569 0.7137255 0.0000000
0.4235294 0.7137255 0.0000000
0.4549020 0.7137255 0.0000000
0.4823530 0.7137255 0.0000000
0.5098040 0.7137255 0.0000000
0.5333334 0.7137255 0.0000000
0.5607843 0.7137255 0.0000000
0.5843138 0.7137255 0.0000000
0.6156863 0.7137255 0.0000000
0.6470588 0.7137255 0.0000000
0.6784314 0.7137255 0.0000000
0.7254902 0.7137255 0.0000000
0.7725491 0.7137255 0.0000000
0.8196079 0.7137255 0.0000000
0.8627452 0.7137255 0.0000000
0.9058824 0.7137255 0.0000000
0.9450981 0.7137255 0.0000000
0.9803922 0.7137255 0.0000000
0.0000000 0.7490196 0.0000000
0.0117647 0.7490196 0.0000000
0.0235294 0.7490196 0.0000000
0.0392157 0.7490196 0.0000000
0.0588235 0.7490196 0.0000000
0.0745098 0.7490196 0.0000000
0.0980392 0.7490196 0.0000000
0.1333333 0.7490196 0.0000000
0.1686275 0.7490196 0.0000000
0.2078432 0.7490196 0.0000000
0.2470588 0.7490196 0.0000000
0.2901961 0.7490196 0.0000000
0.3254902 0.7490196 0.0000000
0.3568628 0.7490196 0.0000000
0.3921569 0.7490196 0.0000000
0.4235294 0.7490196 0.0000000
0.4549020 0.7490196 0.0000000
0.4823530 0.7490196 0.0000000
0.5098040 0.7490196 0.0000000
0.5333334 0.7490196 0.0000000
0.5607843 0.7490196 0.0000000
0.5843138 0.7490196 0.0000000
0.6156863 0.7490196 0.0000000
0.6470588 0.7490196 0.0000000
0.6784314 0.7490196 0.0000000
0.7254902 0.7490196 0.0000000
0.7725491 0.7490196 0.0000000
0.8196079 0.7490196 0.0000000
0.8627452 0.7490196 0.0000000
0.9058824 0.7490196 0.0000000
0.9450981 0.7490196 0.0000000
0.9803922 0.7490196 0.0000000
0.0000000 0.7843138 0.0000000
0.0117647 0.7843138 0.0000000
0.0235294 0.7843138 0.0000000
0.0392157 0.7843138 0.0000000
0.0588235 0.7843138 0.0000000
0.0745098 0.7843138 0.0000000
0.0980392 0.7843138 0.0000000
0.1333333 0.7843138 0.0000000
0.1686275 0.7843138 0.0000000
0.2078432 0.7843138 0.0000000
0.2470588 0.7843138 0.0000000
0.2901961 0.7843138 0.0000000
0.3254902 0.7843138 0.0000000
0.3568628 0.7843138 0.0000000
0.3921569 0.7843138 0.0000000
0.4235294 0.7843138 0.0000000
0.4549020 0.7843138 0.0000000
0.4823530 0.7843138 0.0000000
0.5098040 0.7843138 0.0000000
0.5333334 0.7843138 0.0000000
0.5607843 0.7843138 0.0000000
0.5843138 0.7843138 0.0000000
0.6156863 0.7843138 0.0000000
0.6470588 0.7843138 0.0000000
0.6784314 0.7843138 0.0000000
0.7254902 0.7843138 0.0000000
0.7725491 0.7843138 0.0000000
0.8196079 0.7843138 0.0000000
0.8627452 0.7843138 0.0000000
0.9058824 0.7843138 0.0000000
0.9450981 0.7843138 0.0000000
0.9803922 0.7843138 0.0000000
0.0000000 0.8235295 0.0000000
0.0117647 0.8235295 0.0000000
0.0235294 0.8235295 0.0000000
0.0392157 0.8235295 0.0000000
0.0588235 0.8235295 0.0000000
0.0745098 0.8235295 0.0000000
0.0980392 0.8235295 0.0000000
0.1333333 0.8235295 0.0000000
0.1686275 0.8235295 0.0000000
0.2078432 0.8235295 0.0000000
0.2470588 0.8235295 0.0000000
0.2901961 0.8235295 0.0000000
0.3254902 0.8235295 0.0000000
0.3568628 0.8235295 0.0000000
0.3921569 0.8235295 0.0000000
0.4235294 0.8235295 0.0000000
0.4549020 0.8235295 0.0000000
0.4823530 0.8235295 0.0000000
0.5098040 0.8235295 0.0000000
0.5333334 0.8235295 0.0000000
0.5607843 0.8235295 0.0000000
0.5843138 0.8235295 0.0000000
0.6156863 0.8235295 0.0000000
0.6470588 0.8235295 0.0000000
0.6784314 0.8235295 0.0000000
0.7254902 0.8235295 0.0000000
0.7725491 0.8235295 0.0000000
0.8196079 0.8235295 0.0000000
0.8627452 0.8235295 0.0000000
0.9058824 0.8235295 0.0000000
0.9450981 0.8235295 0.0000000
