Assets/Nexweron/LutKit/LutPack/LUTs/3Dx32/LUTx32_LosAngeles.cube
LUT_3D_SIZE 8
DOMAIN_MIN 0.000000 0.000000 0.000000
DOMAIN_MAX 0.903226 0.903226 0.903226
0.1058824 0.0901961 0.1372549
0.1333333 0.0980392 0.1411765
0.1647059 0.1176471 0.1333333
0.2470588 0.1450980 0.0901961
0.4156863 0.2000000 0.0431373
0.5333334 0.2235294 0.0078431
0.6000000 0.2352941 0.0000000
0.6352941 0.2431373 0.0000000
0.1058824 0.1215686 0.1647059
0.1254902 0.1254902 0.1529412
0.1725490 0.1372549 0.1450980
0.2705882 0.1686275 0.0823529
0.4588236 0.2235294 0.0392157
0.5803922 0.2509804 0.0000000
0.6431373 0.2588235 0.0000000
0.6705883 0.2666667 0.0000000
0.1058824 0.1568628 0.1882353
0.1019608 0.1647059 0.1843137
0.1764706 0.1843137 0.1607843
0.2823530 0.2196079 0.0745098
0.4901961 0.2745098 0.0117647
0.6235294 0.3019608 0.0000000
0.6784314 0.3098039 0.0000000
0.7019608 0.3254902 0.0000000
0.0784314 0.2196079 0.2392157
0.0666667 0.2313726 0.2431373
0.1215686 0.2745098 0.1803922
0.2784314 0.3294118 0.0745098
0.5254902 0.3882353 0.0117647
0.6549020 0.4117647 0.0000000
0.7098039 0.4235294 0.0000000
0.7294118 0.4392157 0.0000000
0.0431373 0.3568628 0.3254902
0.0235294 0.3803922 0.3294118
0.0000000 0.4470589 0.2941177
0.2196079 0.5490196 0.0862745
0.5176471 0.6431373 0.0000000
0.6705883 0.6745098 0.0000000
0.7215686 0.6862745 0.0000000
0.7450981 0.7058824 0.0000000
0.0274510 0.4509804 0.3764706
0.0000000 0.4823530 0.3843138
0.0000000 0.5647059 0.3372549
0.1882353 0.6941177 0.1058824
0.5098040 0.8117648 0.0000000
0.6666667 0.8509805 0.0000000
0.7294118 0.8666667 0.0000000
0.7568628 0.8745099 0.0000000
0.0078431 0.4901961 0.4000000
0.0000000 0.5372549 0.4000000
0.0000000 0.6274510 0.3529412
0.1921569 0.7607844 0.1058824
0.5137255 0.8784314 0.0000000
0.6784314 0.9254903 0.0039216
0.7411765 0.9411765 0.0000000
0.7647060 0.9490197 0.0039216
0.0000000 0.5215687 0.4156863
0.0000000 0.5882353 0.4117647
0.0000000 0.6823530 0.2980392
0.2156863 0.7882354 0.0862745
0.5176471 0.9058824 0.0000000
0.6823530 0.9490197 0.0039216
0.7490196 0.9686275 0.0117647
0.7686275 0.9725491 0.0039216
0.1137255 0.0901961 0.1764706
0.1333333 0.1058824 0.1686275
0.1764706 0.1215686 0.1607843
0.2705882 0.1450980 0.1254902
0.4509804 0.1725490 0.0235294
0.5607843 0.2078432 0.0000000
0.6313726 0.2235294 0.0000000
0.6627451 0.2274510 0.0000000
0.1137255 0.1215686 0.1843137
0.1333333 0.1254902 0.1764706
0.1803922 0.1411765 0.1647059
0.2901961 0.1647059 0.1254902
0.4941177 0.2000000 0.0078431
0.6117647 0.2352941 0.0039216
0.6705883 0.2392157 0.0000000
0.6980392 0.2470588 0.0000000
0.1137255 0.1568628 0.2078432
0.0901961 0.1647059 0.2078432
0.1764706 0.1882353 0.1843137
0.3019608 0.2156863 0.1294118
0.5333334 0.2588235 0.0000000
0.6509804 0.2901961 0.0000000
0.7137255 0.3019608 0.0000000
0.7333333 0.3137255 0.0000000
0.0745098 0.2274510 0.2588235
0.0705882 0.2392157 0.2627451
0.1215686 0.2784314 0.2117647
0.2862745 0.3333333 0.1058824
0.5490196 0.3921569 0.0000000
0.6823530 0.4156863 0.0000000
0.7333333 0.4274510 0.0000000
0.7529413 0.4470589 0.0000000
0.0509804 0.3686275 0.3411765
0.0235294 0.3960785 0.3490196
0.0274510 0.4549020 0.3176471
0.2078432 0.5686275 0.0862745
0.5294118 0.6549020 0.0000000
0.6784314 0.6941177 0.0000000
0.7411765 0.7058824 0.0000000
0.7607844 0.7176471 0.0000000
0.0078431 0.4588236 0.4000000
0.0156863 0.4941177 0.4039216
0.0000000 0.5764706 0.3803922
0.1686275 0.7098039 0.0941177
0.5176471 0.8274511 0.0000000
0.6784314 0.8666667 0.0000000
0.7490196 0.8784314 0.0000000
0.7725491 0.8901961 0.0000000
0.0000000 0.4980392 0.4313726
0.0000000 0.5490196 0.4313726
0.0000000 0.6313726 0.3921569
0.1529412 0.7764707 0.0941177
0.5176471 0.8941177 0.0117647
0.6862745 0.9372550 0.0039216
0.7568628 0.9529412 0.0039216
0.7803922 0.9607844 0.0078431
0.0078431 0.5254902 0.4549020
0.0000000 0.5921569 0.4588236
0.0000000 0.6784314 0.4078432
0.1607843 0.8196079 0.0901961
0.5215687 0.9176471 0.0078431
0.6901961 0.9607844 0.0078431
0.7647060 0.9764706 0.0117647
0.7843138 0.9843138 0.0078431
0.1176471 0.1019608 0.2235294
0.1490196 0.0980392 0.2156863
0.1882353 0.1176471 0.2117647
0.2823530 0.1411765 0.1882353
0.5215687 0.1058824 0.0901961
0.6705883 0.0901961 0.0274510
0.7450981 0.0901961 0.0156863
0.7764707 0.0901961 0.0117647
0.1098039 0.1254902 0.2313726
0.1411765 0.1254902 0.2313726
0.2000000 0.1411765 0.2235294
0.3058824 0.1607843 0.1882353
0.5725490 0.1254902 0.0784314
0.7333333 0.0941177 0.0039216
0.8000001 0.0941177 0.0000000
0.8352942 0.0941177 0.0000000
0.1215686 0.1647059 0.2470588
0.1176471 0.1725490 0.2588235
0.1882353 0.1843137 0.2470588
0.3215686 0.2156863 0.2039216
0.5960785 0.2274510 0.0784314
0.7568628 0.1960784 0.0000000
0.8470589 0.1450980 0.0000000
0.8627452 0.1764706 0.0000000
0.0823529 0.2352941 0.3019608
0.0784314 0.2431373 0.3098039
0.0823529 0.2784314 0.3058824
0.3098039 0.3254902 0.2196079
0.6078432 0.3764706 0.0627451
0.7529413 0.3882353 0.0000000
0.8235295 0.3882353 0.0000000
0.8470589 0.4117647 0.0000000
0.0470588 0.3764706 0.3921569
0.0549020 0.4000000 0.4000000
0.0078431 0.4588236 0.4000000
0.2039216 0.5803922 0.2117647
0.5529412 0.6784314 0.0000000
0.7215686 0.7019608 0.0000000
0.7882354 0.7137255 0.0000000
0.8078432 0.7333333 0.0000000
0.0470588 0.4705883 0.4470589
0.0313726 0.5019608 0.4549020
0.0000000 0.5803922 0.4588236
0.0705882 0.7490196 0.1215686
0.5215687 0.8627452 0.0000000
0.6941177 0.8980393 0.0000000
0.7568628 0.9098040 0.0000000
0.7764707 0.9176471 0.0000000
0.0235294 0.5098040 0.4862745
0.0117647 0.5529412 0.4980392
0.0000000 0.6352941 0.4901961
0.0431373 0.8078432 0.1882353
0.5098040 0.9333334 0.0000000
0.6862745 0.9764706 0.0000000
0.7529413 0.9882354 0.0000000
0.7960785 0.9803922 0.0000000
0.0078431 0.5411765 0.5450981
0.0039216 0.6000000 0.5568628
0.0156863 0.6745098 0.5411765
0.1137255 0.8235295 0.3568628
0.5254902 0.9529412 0.0705882
0.6980392 1.0000000 0.0000000
0.7882354 1.0000000 0.0117647
0.8313726 0.9921569 0.1568628
0.1333333 0.1176471 0.3098039
0.1803922 0.0862745 0.3215686
0.2313726 0.0862745 0.3254902
0.3254902 0.1098039 0.3137255
0.5725490 0.0705882 0.2431373
0.7294118 0.0705882 0.2000000
0.7960785 0.0705882 0.1803922
0.8313726 0.0705882 0.1843137
0.1215686 0.1450980 0.3137255
0.1450980 0.1137255 0.3568628
0.2274510 0.1254902 0.3490196
0.3490196 0.1450980 0.3294118
0.6352941 0.0980392 0.2470588
0.8000001 0.0705882 0.1960784
0.8666667 0.0705882 0.1764706
0.9019608 0.0705882 0.1803922
0.1137255 0.1843137 0.3490196
0.1176471 0.1803922 0.3647059
0.1960784 0.1803922 0.3960785
0.3568628 0.2117647 0.3607843
0.6509804 0.2156863 0.2745098
0.8392158 0.1803922 0.2156863
0.9254903 0.1411765 0.1843137
0.9529412 0.1607843 0.1882353
0.0980392 0.2549020 0.4039216
0.0980392 0.2627451 0.4196079
0.0941177 0.2823530 0.4549020
0.3411765 0.3254902 0.4117647
0.6705883 0.3647059 0.3098039
0.8470589 0.3686275 0.2431373
0.9176471 0.3647059 0.2196079
0.9450981 0.3921569 0.2196079
0.0588235 0.4000000 0.5058824
0.0588235 0.4196079 0.5254902
0.0392157 0.4705883 0.5529412
0.2000000 0.5803922 0.4980392
0.6431373 0.6666667 0.3333333
0.8313726 0.6941177 0.2549020
0.9019608 0.6980392 0.2313726
0.9215687 0.7215686 0.2274510
0.0352941 0.4901961 0.5725490
0.0352941 0.5254902 0.5921569
0.0352941 0.5921569 0.6117647
0.0000000 0.7333333 0.5843138
0.6000000 0.8588236 0.3450980
0.7921569 0.8980393 0.2509804
0.8666667 0.9058824 0.2156863
0.8823530 0.9137256 0.2352941
0.0431373 0.5372549 0.6117647
0.0156863 0.5764706 0.6509804
0.0000000 0.6470588 0.6784314
0.0000000 0.7921569 0.6509804
0.5882353 0.9254903 0.3960785
0.7882354 0.9764706 0.2980392
0.8588236 0.9882354 0.2705882
0.8784314 0.9803922 0.3411765
0.0352941 0.5647059 0.6784314
0.0274510 0.6235294 0.7176471
0.0117647 0.6901961 0.7450981
0.0000000 0.8274511 0.7254902
0.6000000 0.9450981 0.4941177
0.8000001 0.9960785 0.4156863
0.8784314 1.0000000 0.3843138
0.9019608 0.9960785 0.4627451
0.1333333 0.1803922 0.4156863
0.1411765 0.1686275 0.4431373
0.2941177 0.0470588 0.5098040
0.4078432 0.0470588 0.5058824
0.6470588 0.0470588 0.4509804
0.7843138 0.0588235 0.4156863
0.8588236 0.0666667 0.4039216
0.8941177 0.0666667 0.4000000
0.1372549 0.1921569 0.4431373
0.1372549 0.1921569 0.4627451
0.3058824 0.0431373 0.5568628
0.4431373 0.0549020 0.5490196
0.7254902 0.0431373 0.4862745
0.8784314 0.0431373 0.4352942
0.9450981 0.0431373 0.4196079
0.9803922 0.0431373 0.4235294
0.1294118 0.2313726 0.4941177
0.1333333 0.2313726 0.5137255
0.1686275 0.1960784 0.6039216
0.4235294 0.1725490 0.6117647
0.7411765 0.1803922 0.5411765
0.9333334 0.1333333 0.4901961
1.0000000 0.0666667 0.4588236
1.0000000 0.1254902 0.4705883
0.1176471 0.2980392 0.5725490
0.1215686 0.3019608 0.5882353
0.1294118 0.3176471 0.6470588
0.3686275 0.3215686 0.7019608
0.7450981 0.3607843 0.6117647
0.9294118 0.3607843 0.5568628
1.0000000 0.3568628 0.5333334
1.0000000 0.3803922 0.5450981
0.0823529 0.4431373 0.6941177
0.0823529 0.4666667 0.7215686
0.0745098 0.5098040 0.7803922
0.1019608 0.5882353 0.8627452
0.6980392 0.6784314 0.7019608
0.9019608 0.7019608 0.6392157
0.9803922 0.7019608 0.6117647
1.0000000 0.7215686 0.6156863
0.0588235 0.5411765 0.7686275
0.0549020 0.5686275 0.8000001
0.0431373 0.6313726 0.8549020
0.0117647 0.7411765 0.9333334
0.6509804 0.8666667 0.7490196
0.8627452 0.9058824 0.6705883
0.9490197 0.9137256 0.6431373
0.9725491 0.9215687 0.6470588
0.0549020 0.5803922 0.8156863
0.0431373 0.6235294 0.8509805
0.0313726 0.6862745 0.9098040
0.0000000 0.8000001 0.9764706
0.6313726 0.9372550 0.7921569
0.8549020 0.9843138 0.7176471
0.9411765 0.9960785 0.6823530
0.9568628 1.0000000 0.6980392
0.0509804 0.6078432 0.8627452
0.0431373 0.6627451 0.9137256
0.0274510 0.7254902 0.9686275
0.0000000 0.8313726 1.0000000
0.6352941 0.9568628 0.8470589
0.8509805 1.0000000 0.7764707
0.9411765 1.0000000 0.7411765
0.9647059 1.0000000 0.7647060
0.1372549 0.2078432 0.4980392
0.1607843 0.2117647 0.5058824
0.3137255 0.0392157 0.6196079
0.4431373 0.0352941 0.6156863
0.6862745 0.0313726 0.5764706
0.8235295 0.0627451 0.5450981
0.8941177 0.0745098 0.5294118
0.9333334 0.0745098 0.5254902
0.1411765 0.2235294 0.5333334
0.1411765 0.2274510 0.5490196
0.2705882 0.0823529 0.6823530
0.4862745 0.0274510 0.6784314
0.7725491 0.0274510 0.6313726
0.9254903 0.0274510 0.5843138
0.9960785 0.0274510 0.5686275
1.0000000 0.0274510 0.5686275
0.1372549 0.2588235 0.5882353
0.1411765 0.2627451 0.6117647
0.1686275 0.2549020 0.6627451
0.4705883 0.1450980 0.7725491
0.8039216 0.1411765 0.7098039
1.0000000 0.0588235 0.6549020
1.0000000 0.0196078 0.6313726
1.0000000 0.0313726 0.6313726
0.1294118 0.3294118 0.6784314
0.1294118 0.3372549 0.6980392
0.1411765 0.3450980 0.7607844
0.3764706 0.3137255 0.8823530
0.7882354 0.3450980 0.7921569
0.9764706 0.3529412 0.7490196
1.0000000 0.3450980 0.7215686
1.0000000 0.3686275 0.7294118
0.0980392 0.4745098 0.8078432
0.0980392 0.4901961 0.8392158
0.1176471 0.5333334 0.8941177
0.1215686 0.5921569 1.0000000
0.7333333 0.6745098 0.9137256
0.9411765 0.6941177 0.8549020
1.0000000 0.6980392 0.8274511
1.0000000 0.7176471 0.8274511
0.0823529 0.5686275 0.8862746
0.0980392 0.5960785 0.9176471
0.0666667 0.6549020 0.9843138
0.0470588 0.7490196 1.0000000
0.6666667 0.8666667 0.9686275
0.9019608 0.9058824 0.9019608
0.9921569 0.9098040 0.8705883
1.0000000 0.9215687 0.8705883
0.0823529 0.6117647 0.9215687
0.0784314 0.6470588 0.9686275
0.0745098 0.7058824 1.0000000
0.0313726 0.8039216 1.0000000
0.6392157 0.9411765 1.0000000
0.8784314 0.9843138 0.9333334
0.9764706 0.9960785 0.9058824
1.0000000 1.0000000 0.8941177
0.0666667 0.6352941 0.9647059
0.0745098 0.6823530 1.0000000
0.0470588 0.7411765 1.0000000
0.0313726 0.8313726 1.0000000
0.6431373 0.9568628 1.0000000
0.8745099 1.0000000 0.9647059
0.9686275 1.0000000 0.9411765
1.0000000 1.0000000 0.9294118
0.1450980 0.2235294 0.5490196
0.1529412 0.2235294 0.5568628
0.2274510 0.1254902 0.6784314
0.4588236 0.0274510 0.6784314
0.7098039 0.0235294 0.6431373
0.8392158 0.0862745 0.6156863
0.9098040 0.0901961 0.6039216
0.9490197 0.0823529 0.6000000
0.1450980 0.2431373 0.5882353
0.1450980 0.2470588 0.6000000
0.2000000 0.1764706 0.7058824
0.5176471 0.0156863 0.7607844
0.8039216 0.0156863 0.7137255
0.9529412 0.0196078 0.6705883
1.0000000 0.0235294 0.6470588
1.0000000 0.0156863 0.6509804
0.1450980 0.2784314 0.6470588
0.1490196 0.2823530 0.6666667
0.1607843 0.2784314 0.7215686
0.4941177 0.1254902 0.8549020
0.8392158 0.1137255 0.7960785
1.0000000 0.0313726 0.7490196
1.0000000 0.0078431 0.7254902
1.0000000 0.0235294 0.7294118
0.1333333 0.3450980 0.7294118
0.1372549 0.3529412 0.7568628
0.1490196 0.3607843 0.8156863
0.3843138 0.3098039 0.9764706
0.8117648 0.3372549 0.8941177
1.0000000 0.3411765 0.8470589
1.0000000 0.3372549 0.8274511
1.0000000 0.3607843 0.8274511
0.1215686 0.4862745 0.8666667
0.1058824 0.5058824 0.8980393
0.1176471 0.5490196 0.9647059
0.1215686 0.5921569 1.0000000
0.7450981 0.6666667 1.0000000
0.9607844 0.6862745 0.9607844
1.0000000 0.6862745 0.9372550
1.0000000 0.7098039 0.9333334
0.1058824 0.5843138 0.9411765
0.0823529 0.6117647 0.9882354
0.0745098 0.6627451 1.0000000
0.0941177 0.7490196 1.0000000
0.6745098 0.8666667 1.0000000
0.9176471 0.8980393 1.0000000
1.0000000 0.9058824 0.9882354
1.0000000 0.9137256 0.9843138
0.0941177 0.6235294 0.9764706
0.0784314 0.6627451 1.0000000
0.0862745 0.7137255 1.0000000
0.0980392 0.8078432 1.0000000
0.6392157 0.9372550 1.0000000
0.8941177 0.9803922 1.0000000
0.9921569 0.9921569 1.0000000
1.0000000 1.0000000 1.0000000
0.0705882 0.6470588 1.0000000
0.0666667 0.6941177 1.0000000
0.0549020 0.7490196 1.0000000
0.0431373 0.8352942 1.0000000
0.6392157 0.9568628 1.0000000
0.8823530 1.0000000 1.0000000
0.9843138 1.0000000 1.0000000
1.0000000 1.0000000 1.0000000
0.1450980 0.2352941 0.5686275
0.1490196 0.2313726 0.5843138
0.2196079 0.1411765 0.7098039
0.4784314 0.0235294 0.7176471
0.7372549 0.0196078 0.6823530
0.8666667 0.0823529 0.6509804
0.9372550 0.0901961 0.6392157
0.9725491 0.0901961 0.6431373
0.1450980 0.2588235 0.6196079
0.1490196 0.2588235 0.6352941
0.1725490 0.2431373 0.7019608
0.5333334 0.0117647 0.8078432
0.8352942 0.0117647 0.7607844
0.9921569 0.0117647 0.7176471
1.0000000 0.0156863 0.6980392
1.0000000 0.0156863 0.7058824
0.1411765 0.2980392 0.6745098
0.1450980 0.2980392 0.6941177
0.1647059 0.2901961 0.7568628
0.4901961 0.1490196 0.8980393
0.8392158 0.1411765 0.8470589
1.0000000 0.0980392 0.8039216
1.0000000 0.0470588 0.7764707
1.0000000 0.0745098 0.7803922
0.1372549 0.3568628 0.7568628
0.1411765 0.3647059 0.7843138
0.1529412 0.3725490 0.8509805
0.3607843 0.3176471 1.0000000
0.8156863 0.3529412 0.9333334
1.0000000 0.3568628 0.8901961
1.0000000 0.3490196 0.8666667
1.0000000 0.3686275 0.8745099
0.1098039 0.4941177 0.8901961
0.1372549 0.5137255 0.9137256
0.1098039 0.5490196 0.9921569
0.1254902 0.5921569 1.0000000
0.7490196 0.6705883 1.0000000
0.9686275 0.6862745 1.0000000
1.0000000 0.6901961 0.9803922
1.0000000 0.7098039 0.9764706
0.0941177 0.5882353 0.9686275
0.0823529 0.6156863 1.0000000
0.0784314 0.6666667 1.0000000
0.0745098 0.7450981 1.0000000
0.6784314 0.8588236 1.0000000
0.9215687 0.8901961 1.0000000
1.0000000 0.9019608 1.0000000
1.0000000 0.9137256 1.0000000
0.0784314 0.6274510 1.0000000
0.1176471 0.6666667 1.0000000
0.0627451 0.7215686 1.0000000
0.0549020 0.8078432 1.0000000
0.6392157 0.9333334 1.0000000
0.8941177 0.9764706 1.0000000
0.9921569 0.9960785 1.0000000
1.0000000 1.0000000 1.0000000
0.0941177 0.6509804 1.0000000
0.0666667 0.6980392 1.0000000
0.0823529 0.7529413 1.0000000
0.0784314 0.8352942 1.0000000
0.6392157 0.9529412 1.0000000
0.8901961 0.9960785 1.0000000
0.9882354 1.0000000 1.0000000
1.0000000 1.0000000 1.0000000
