Assets/Nexweron/LutKit/LutPack/LUTs/3Dx32/LUTx32_BwCoal.cube
LUT_3D_SIZE 5
DOMAIN_MIN 0.000000 0.000000 0.000000
DOMAIN_MAX 0.903226 0.903226 0.903226
0.0156863 0.0156863 0.0156863
0.0549020 0.0549020 0.0549020
0.0901961 0.0901961 0.0901961
0.1333333 0.1333333 0.1333333
0.1725490 0.1725490 0.1725490
0.1411765 0.1411765 0.1411765
0.1803922 0.1803922 0.1803922
0.2196079 0.2196079 0.2196079
0.2627451 0.2627451 0.2627451
0.3058824 0.3058824 0.3058824
0.2705882 0.2705882 0.2705882
0.3137255 0.3137255 0.3137255
0.3647059 0.3647059 0.3647059
0.4235294 0.4235294 0.4235294
0.4823530 0.4823530 0.4823530
0.4627451 0.4627451 0.4627451
0.5215687 0.5215687 0.5215687
0.5764706 0.5764706 0.5764706
0.6392157 0.6392157 0.6392157
0.6862745 0.6862745 0.6862745
0.6470588 0.6470588 0.6470588
0.6941177 0.6941177 0.6941177
0.7411765 0.7411765 0.7411765
0.7921569 0.7921569 0.7921569
0.8352942 0.8352942 0.8352942
0.0313726 0.0313726 0.0313726
0.0705882 0.0705882 0.0705882
0.1058824 0.1058824 0.1058824
0.1490196 0.1490196 0.1490196
0.1882353 0.1882353 0.1882353
0.1568628 0.1568628 0.1568628
0.1960784 0.1960784 0.1960784
0.2352941 0.2352941 0.2352941
0.2823530 0.2823530 0.2823530
0.3254902 0.3254902 0.3254902
0.2901961 0.2901961 0.2901961
0.3372549 0.3372549 0.3372549
0.3843138 0.3843138 0.3843138
0.4470589 0.4470589 0.4470589
0.5058824 0.5058824 0.5058824
0.4862745 0.4862745 0.4862745
0.5450981 0.5450981 0.5450981
0.6000000 0.6000000 0.6000000
0.6588235 0.6588235 0.6588235
0.7058824 0.7058824 0.7058824
0.6666667 0.6666667 0.6666667
0.7137255 0.7137255 0.7137255
0.7607844 0.7607844 0.7607844
0.8117648 0.8117648 0.8117648
0.8549020 0.8549020 0.8549020
0.0470588 0.0470588 0.0470588
0.0862745 0.0862745 0.0862745
0.1254902 0.1254902 0.1254902
0.1686275 0.1686275 0.1686275
0.2039216 0.2039216 0.2039216
0.1725490 0.1725490 0.1725490
0.2117647 0.2117647 0.2117647
0.2509804 0.2509804 0.2509804
0.3019608 0.3019608 0.3019608
0.3490196 0.3490196 0.3490196
0.3098039 0.3098039 0.3098039
0.3568628 0.3568628 0.3568628
0.4078432 0.4078432 0.4078432
0.4745098 0.4745098 0.4745098
0.5333334 0.5333334 0.5333334
0.5137255 0.5137255 0.5137255
0.5686275 0.5686275 0.5686275
0.6235294 0.6235294 0.6235294
0.6784314 0.6784314 0.6784314
0.7254902 0.7254902 0.7254902
0.6901961 0.6901961 0.6901961
0.7333333 0.7333333 0.7333333
0.7803922 0.7803922 0.7803922
0.8313726 0.8313726 0.8313726
0.8705883 0.8705883 0.8705883
0.0666667 0.0666667 0.0666667
0.1058824 0.1058824 0.1058824
0.1411765 0.1411765 0.1411765
0.1843137 0.1843137 0.1843137
0.2235294 0.2235294 0.2235294
0.1921569 0.1921569 0.1921569
0.2313726 0.2313726 0.2313726
0.2705882 0.2705882 0.2705882
0.3215686 0.3215686 0.3215686
0.3725490 0.3725490 0.3725490
0.3333333 0.3333333 0.3333333
0.3803922 0.3803922 0.3803922
0.4352942 0.4352942 0.4352942
0.5019608 0.5019608 0.5019608
0.5607843 0.5607843 0.5607843
0.5411765 0.5411765 0.5411765
0.5960785 0.5960785 0.5960785
0.6470588 0.6470588 0.6470588
0.7019608 0.7019608 0.7019608
0.7490196 0.7490196 0.7490196
0.7098039 0.7098039 0.7098039
0.7568628 0.7568628 0.7568628
0.8000001 0.8000001 0.8000001
0.8509805 0.8509805 0.8509805
0.8941177 0.8941177 0.8941177
0.0823529 0.0823529 0.0823529
0.1215686 0.1215686 0.1215686
0.1568628 0.1568628 0.1568628
0.2000000 0.2000000 0.2000000
0.2431373 0.2431373 0.2431373
0.2078432 0.2078432 0.2078432
0.2470588 0.2470588 0.2470588
0.2901961 0.2901961 0.2901961
0.3450980 0.3450980 0.3450980
0.3921569 0.3921569 0.3921569
0.3529412 0.3529412 0.3529412
0.4039216 0.4039216 0.4039216
0.4588236 0.4588236 0.4588236
0.5254902 0.5254902 0.5254902
0.5843138 0.5843138 0.5843138
0.5647059 0.5647059 0.5647059
0.6196079 0.6196079 0.6196079
0.6705883 0.6705883 0.6705883
0.7215686 0.7215686 0.7215686
0.7686275 0.7686275 0.7686275
0.7294118 0.7294118 0.7294118
0.7764707 0.7764707 0.7764707
0.8196079 0.8196079 0.8196079
0.8705883 0.8705883 0.8705883
0.9098040 0.9098040 0.9098040
