Assets/Nexweron/LutKit/LutPack/LUTs/3Dx32/LUTx32_Scify.cube
LUT_3D_SIZE 5
DOMAIN_MIN 0.000000 0.000000 0.000000
DOMAIN_MAX 0.903226 0.903226 0.903226
0.0000000 0.0000000 0.0000000
0.1921569 0.0078431 0.0000000
0.6941177 0.0862745 0.0000000
0.9725491 0.1411765 0.0000000
0.9725491 0.1411765 0.0000000
0.0627451 0.4156863 0.0039216
0.0274510 0.2980392 0.0039216
0.3882353 0.1725490 0.0000000
0.9411765 0.1411765 0.0000000
0.9725491 0.1411765 0.0000000
0.1607843 0.8039216 0.0235294
0.1333333 0.6941177 0.0156863
0.1176471 0.5764706 0.0117647
0.6392157 0.4352942 0.0000000
0.9921569 0.3137255 0.0000000
0.2078432 0.9960785 0.0352941
0.2078432 0.9960785 0.0352941
0.2039216 0.9843138 0.0352941
0.2745098 0.8274511 0.0117647
0.7490196 0.6823530 0.0000000
0.2078432 0.9960785 0.0352941
0.2078432 0.9960785 0.0352941
0.2078432 0.9960785 0.0352941
0.2078432 0.9960785 0.0352941
0.4784314 0.9803922 0.0039216
0.0235294 0.0078431 0.2509804
0.0980392 0.0078431 0.2549020
0.6156863 0.0000000 0.2588235
1.0000000 0.0235294 0.2274510
1.0000000 0.0235294 0.2235294
0.0274510 0.4039216 0.2313726
0.0235294 0.2862745 0.2352941
0.3254902 0.1411765 0.2000000
0.8862746 0.0000000 0.1843137
1.0000000 0.0156863 0.1921569
0.0274510 0.7960785 0.1215686
0.0235294 0.6862745 0.1568628
0.0196078 0.5725490 0.1764706
0.5529412 0.4235294 0.1568628
0.9960785 0.2823530 0.1254902
0.1411765 1.0000000 0.0823529
0.1450980 1.0000000 0.0901961
0.1176471 0.9725491 0.0627451
0.2235294 0.8196079 0.1411765
0.6862745 0.6862745 0.0862745
0.1607843 0.9960785 0.0588235
0.1607843 0.9960785 0.0588235
0.1607843 0.9960785 0.0627451
0.1490196 1.0000000 0.0705882
0.4117647 0.9921569 0.0941177
0.0901961 0.0431373 0.5294118
0.1019608 0.0392157 0.5254902
0.5254902 0.0078431 0.5686275
1.0000000 0.0235294 0.5607843
1.0000000 0.0235294 0.5607843
0.0823529 0.3960785 0.5490196
0.0745098 0.2784314 0.5490196
0.2235294 0.1647059 0.5137255
0.7843138 0.0039216 0.5372549
1.0000000 0.0196078 0.5372549
0.0941177 0.7882354 0.4941177
0.0941177 0.6784314 0.5058824
0.0980392 0.5647059 0.5176471
0.5254902 0.4000000 0.4392157
0.9764706 0.2431373 0.4627451
0.2117647 0.9960785 0.4549020
0.2235294 0.9960785 0.4588236
0.1215686 0.9647059 0.4274510
0.1254902 0.8274511 0.4274510
0.7019608 0.6784314 0.3960785
0.1921569 0.9960785 0.4039216
0.1921569 0.9960785 0.4000000
0.1921569 0.9960785 0.4078432
0.2000000 0.9960785 0.4274510
0.3686275 1.0000000 0.4470589
0.1686275 0.0941177 0.8470589
0.1647059 0.0941177 0.8392158
0.4313726 0.0823529 0.8745099
0.9686275 0.0117647 0.9058824
1.0000000 0.0588235 0.8980393
0.1372549 0.3882353 0.8941177
0.1176471 0.2666667 0.9019608
0.1725490 0.1607843 0.8588236
0.6745098 0.0745098 0.8627452
1.0000000 0.0588235 0.8745099
0.1921569 0.7764707 0.8470589
0.1411765 0.6705883 0.8588236
0.1450980 0.5607843 0.8666667
0.4156863 0.4117647 0.8000001
0.8901961 0.2588235 0.8117648
0.2980392 0.9921569 0.8000001
0.3058824 0.9921569 0.7960785
0.1921569 0.9607844 0.7803922
0.1921569 0.8352942 0.7803922
0.6823530 0.6941177 0.6862745
0.2784314 0.9921569 0.7372549
0.2745098 0.9921569 0.7333333
0.2784314 0.9921569 0.7411765
0.2862745 0.9921569 0.7647060
0.3843138 0.9960785 0.7882354
0.1843137 0.1058824 0.9098040
0.1843137 0.1058824 0.9098040
0.3647059 0.0980392 0.9372550
0.9058824 0.0196078 0.9843138
1.0000000 0.0431373 0.9843138
0.1686275 0.3843138 0.9921569
0.1529412 0.2705882 0.9960785
0.1568628 0.1490196 0.9843138
0.5921569 0.0901961 0.9607844
1.0000000 0.0352941 0.9843138
0.2196079 0.7764707 0.9882354
0.2039216 0.6705883 0.9882354
0.2000000 0.5568628 0.9882354
0.2980392 0.4156863 0.9921569
0.8039216 0.2784314 1.0000000
0.5019608 0.9725491 0.9725491
0.5098040 0.9764706 0.9725491
0.4078432 0.9490197 0.9803922
0.2588235 0.8509805 0.9921569
0.4980392 0.7450981 0.9960785
0.4823530 0.9764706 0.9607844
0.4823530 0.9764706 0.9607844
0.4862745 0.9764706 0.9647059
0.4980392 0.9764706 0.9725491
0.5411765 0.9764706 0.9725491
