Assets/Nexweron/LutKit/LutPack/LUTs/3Dx32/LUTx32_Storm.cube
LUT_3D_SIZE 5
DOMAIN_MIN 0.000000 0.000000 0.000000
DOMAIN_MAX 0.903226 0.903226 0.903226
0.0156863 0.0117647 0.0117647
0.1254902 0.0117647 0.0078431
0.2509804 0.0000000 0.0000000
0.4196079 0.0000000 0.0000000
0.6235294 0.0000000 0.0000000
0.0352941 0.0705882 0.0156863
0.1215686 0.0784314 0.0117647
0.2509804 0.0627451 0.0000000
0.4156863 0.0000000 0.0000000
0.6196079 0.0000000 0.0000000
0.0627451 0.1294118 0.0235294
0.1372549 0.1411765 0.0196078
0.2509804 0.1490196 0.0000000
0.4156863 0.1215686 0.0000000
0.6156863 0.0078431 0.0000000
0.0745098 0.2078432 0.0235294
0.1529412 0.2235294 0.0156863
0.2705882 0.2392157 0.0000000
0.4235294 0.2470588 0.0000000
0.6196079 0.2196079 0.0000000
0.0627451 0.2980392 0.0078431
0.1529412 0.3215686 0.0000000
0.2862745 0.3411765 0.0000000
0.4431373 0.3607843 0.0000000
0.6235294 0.3764706 0.0000000
0.0274510 0.0235294 0.0705882
0.0745098 0.0235294 0.0509804
0.1843137 0.0156863 0.0196078
0.3294118 0.0000000 0.0000000
0.5137255 0.0000000 0.0000000
0.0392157 0.0823529 0.0470588
0.1607843 0.1294118 0.1058824
0.2941177 0.1176471 0.0666667
0.4666667 0.0509804 0.0000000
0.6745098 0.0000000 0.0000000
0.0666667 0.1411765 0.0509804
0.1764706 0.2078432 0.1058824
0.3019608 0.2196079 0.0666667
0.4745098 0.2000000 0.0000000
0.6784314 0.1372549 0.0000000
0.0784314 0.2156863 0.0470588
0.1882353 0.3019608 0.0980392
0.3176471 0.3215686 0.0352941
0.4784314 0.3372549 0.0000000
0.6862745 0.3137255 0.0000000
0.0588235 0.3137255 0.0235294
0.1843137 0.4117647 0.0745098
0.3294118 0.4392157 0.0000000
0.4980392 0.4627451 0.0000000
0.6862745 0.4784314 0.0000000
0.0549020 0.0352941 0.1294118
0.0666667 0.0352941 0.1098039
0.1294118 0.0352941 0.0862745
0.2509804 0.0117647 0.0509804
0.4117647 0.0000000 0.0000000
0.0509804 0.0901961 0.0980392
0.1450980 0.1450980 0.1803922
0.2313726 0.1411765 0.1529412
0.3843138 0.1098039 0.1058824
0.5686275 0.0039216 0.0000000
0.0666667 0.1490196 0.0745098
0.1764706 0.2235294 0.1490196
0.3647059 0.3058824 0.2509804
0.5411765 0.2941177 0.1921569
0.7490196 0.2509804 0.0509804
0.0784314 0.2274510 0.0705882
0.1882353 0.3176471 0.1450980
0.3803922 0.4235294 0.2509804
0.5490196 0.4431373 0.1921569
0.7607844 0.4313726 0.0313726
0.0509804 0.3254902 0.0549020
0.1803922 0.4313726 0.1333333
0.3882353 0.5529412 0.2470588
0.5686275 0.5803922 0.1764706
0.7568628 0.6000000 0.0039216
0.0745098 0.0509804 0.2039216
0.0705882 0.0509804 0.1803922
0.1176471 0.0470588 0.1529412
0.1960784 0.0313726 0.1215686
0.3294118 0.0000000 0.0823529
0.0705882 0.0980392 0.1686275
0.1254902 0.1568628 0.2862745
0.2117647 0.1568628 0.2509804
0.3137255 0.1450980 0.2117647
0.4745098 0.1058824 0.1568628
0.0745098 0.1607843 0.1333333
0.1568628 0.2392157 0.2352941
0.3294118 0.3294118 0.3843138
0.4666667 0.3294118 0.3411765
0.6549020 0.3058824 0.2705882
0.0745098 0.2431373 0.1019608
0.1843137 0.3333333 0.1921569
0.3764706 0.4470589 0.3333333
0.6196079 0.5686275 0.5019608
0.8352942 0.5568628 0.4313726
0.0509804 0.3411765 0.0901961
0.1725490 0.4509804 0.1882353
0.3843138 0.5803922 0.3333333
0.6431373 0.7098039 0.5137255
0.8352942 0.7333333 0.4509804
0.0745098 0.0745098 0.3058824
0.0784314 0.0705882 0.2745098
0.1058824 0.0627451 0.2392157
0.1725490 0.0549020 0.2039216
0.2666667 0.0274510 0.1725490
0.0784314 0.1137255 0.2588235
0.0745098 0.1803922 0.4156863
0.1764706 0.1725490 0.3803922
0.2862745 0.1647059 0.3254902
0.4039216 0.1490196 0.2823530
0.0823529 0.1764706 0.2117647
0.1254902 0.2588235 0.3529412
0.2705882 0.3529412 0.5450981
0.4274510 0.3490196 0.4980392
0.5686275 0.3450980 0.4392157
0.0862745 0.2588235 0.1686275
0.1529412 0.3568628 0.2941177
0.3294118 0.4784314 0.4745098
0.5686275 0.6000000 0.6901961
0.7411765 0.6039216 0.6352941
0.0549020 0.3568628 0.1294118
0.1647059 0.4705883 0.2470588
0.3764706 0.6039216 0.4117647
0.6352941 0.7411765 0.6274510
0.8823530 0.8705883 0.8392158
