Assets/Nexweron/LutKit/LutPack/LUTs/3Dx32/LUTx32_BlueNavy.cube
LUT_3D_SIZE 8
DOMAIN_MIN 0.000000 0.000000 0.000000
DOMAIN_MAX 0.903226 0.903226 0.903226
0.0156863 0.0156863 0.0156863
0.0352941 0.0196078 0.0196078
0.0666667 0.0196078 0.0235294
0.1529412 0.0235294 0.0313726
0.3137255 0.0196078 0.0313726
0.5764706 0.0117647 0.0196078
0.7725491 0.0039216 0.0078431
0.8823530 0.0039216 0.0039216
0.0196078 0.0313726 0.0235294
0.0509804 0.0431373 0.0235294
0.1137255 0.0588235 0.0274510
0.2274510 0.0705882 0.0274510
0.4000000 0.0745098 0.0235294
0.6274510 0.0666667 0.0156863
0.7960785 0.0509804 0.0078431
0.8862746 0.0392157 0.0039216
0.0235294 0.0470588 0.0274510
0.0588235 0.0666667 0.0274510
0.1490196 0.1019608 0.0274510
0.2901961 0.1372549 0.0274510
0.4745098 0.1529412 0.0196078
0.6745098 0.1450980 0.0117647
0.8156863 0.1254902 0.0078431
0.8941177 0.1019608 0.0039216
0.0274510 0.0705882 0.0392157
0.0745098 0.0941177 0.0431373
0.1882353 0.1490196 0.0392157
0.3490196 0.2078432 0.0313726
0.5372549 0.2509804 0.0196078
0.7176471 0.2470588 0.0117647
0.8352942 0.2313726 0.0078431
0.9019608 0.2117647 0.0078431
0.0392157 0.0980392 0.0666667
0.0941177 0.1333333 0.0745098
0.2313726 0.2039216 0.0705882
0.4117647 0.2901961 0.0549020
0.6000000 0.3686275 0.0313726
0.7647060 0.3803922 0.0196078
0.8588236 0.3764706 0.0156863
0.9137256 0.3647059 0.0117647
0.0588235 0.1647059 0.1294118
0.1372549 0.2235294 0.1450980
0.2941177 0.3098039 0.1411765
0.4941177 0.4078432 0.1176471
0.6901961 0.5019608 0.0745098
0.8078432 0.5450981 0.0431373
0.8862746 0.5529412 0.0352941
0.9333334 0.5568628 0.0352941
0.0980392 0.3019608 0.2549020
0.2078432 0.3882353 0.2784314
0.3843138 0.4862745 0.2784314
0.5882353 0.5803922 0.2509804
0.7647060 0.6588235 0.1843137
0.8627452 0.6980392 0.1176471
0.9137256 0.7098039 0.0941177
0.9529412 0.7176471 0.0901961
0.1529412 0.5058824 0.4313726
0.3058824 0.5921569 0.4588236
0.4980392 0.6745098 0.4588236
0.6823530 0.7450981 0.4196079
0.8274511 0.7960785 0.3411765
0.9019608 0.8196079 0.2392157
0.9411765 0.8313726 0.1882353
0.9686275 0.8392158 0.1686275
0.0196078 0.0196078 0.0313726
0.0352941 0.0196078 0.0392157
0.0745098 0.0196078 0.0470588
0.1490196 0.0196078 0.0588235
0.2784314 0.0196078 0.0666667
0.5058824 0.0156863 0.0588235
0.7215686 0.0078431 0.0392157
0.8588236 0.0078431 0.0235294
0.0196078 0.0313726 0.0352941
0.0588235 0.0549020 0.0588235
0.1294118 0.0745098 0.0784314
0.2392157 0.0941177 0.0941177
0.3921569 0.1019608 0.1019608
0.6000000 0.0941177 0.0941177
0.7725491 0.0784314 0.0705882
0.8784314 0.0588235 0.0470588
0.0235294 0.0470588 0.0431373
0.0666667 0.0823529 0.0705882
0.1647059 0.1333333 0.0941177
0.3019608 0.1764706 0.1098039
0.4705883 0.1960784 0.1137255
0.6588235 0.1921569 0.1058824
0.8039216 0.1725490 0.0862745
0.8901961 0.1411765 0.0588235
0.0274510 0.0666667 0.0509804
0.0705882 0.1098039 0.0862745
0.1882353 0.1882353 0.1058824
0.3490196 0.2627451 0.1176471
0.5294118 0.3058824 0.1176471
0.7019608 0.3098039 0.1098039
0.8235295 0.2941177 0.0901961
0.9019608 0.2627451 0.0705882
0.0352941 0.0901961 0.0705882
0.0823529 0.1411765 0.1176471
0.2117647 0.2352941 0.1411765
0.3921569 0.3411765 0.1411765
0.5882353 0.4235294 0.1215686
0.7450981 0.4431373 0.1098039
0.8470589 0.4352942 0.0941177
0.9137256 0.4196079 0.0823529
0.0509804 0.1372549 0.1137255
0.1019608 0.2078432 0.1882353
0.2549020 0.3176471 0.2196079
0.4549020 0.4352942 0.2117647
0.6588235 0.5411765 0.1764706
0.7921569 0.5882353 0.1254902
0.8745099 0.5960785 0.1098039
0.9294118 0.5960785 0.1019608
0.0784314 0.2470588 0.2156863
0.1490196 0.3529412 0.3254902
0.3254902 0.4745098 0.3647059
0.5411765 0.5882353 0.3529412
0.7411765 0.6823530 0.3019608
0.8470589 0.7254902 0.2196079
0.9058824 0.7372549 0.1686275
0.9490197 0.7411765 0.1490196
0.1137255 0.4274510 0.3803922
0.2235294 0.5529412 0.4980392
0.4235294 0.6588235 0.5372549
0.6392157 0.7450981 0.5215687
0.8117648 0.8078432 0.4627451
0.8941177 0.8352942 0.3568628
0.9372550 0.8431373 0.2745098
0.9647059 0.8509805 0.2352941
0.0196078 0.0196078 0.0470588
0.0352941 0.0196078 0.0509804
0.0705882 0.0196078 0.0666667
0.1294118 0.0196078 0.0862745
0.2274510 0.0196078 0.1019608
0.3960785 0.0196078 0.0941177
0.6117647 0.0156863 0.0705882
0.7882354 0.0117647 0.0470588
0.0235294 0.0352941 0.0509804
0.0588235 0.0549020 0.0784314
0.1254902 0.0784314 0.1176471
0.2235294 0.0941177 0.1529412
0.3568628 0.1058824 0.1725490
0.5294118 0.1019608 0.1647059
0.7058824 0.0862745 0.1294118
0.8392158 0.0705882 0.0901961
0.0235294 0.0509804 0.0588235
0.0666667 0.0862745 0.0941177
0.1568628 0.1372549 0.1450980
0.2823530 0.1843137 0.1921569
0.4431373 0.2117647 0.2117647
0.6156863 0.2156863 0.2078432
0.7725491 0.2000000 0.1764706
0.8784314 0.1725490 0.1333333
0.0274510 0.0666667 0.0666667
0.0666667 0.1058824 0.1058824
0.1686275 0.1921569 0.1686275
0.3176471 0.2745098 0.2196079
0.5058824 0.3333333 0.2313726
0.6784314 0.3490196 0.2274510
0.8117648 0.3372549 0.2039216
0.9019608 0.3137255 0.1725490
0.0352941 0.0901961 0.0823529
0.0705882 0.1294118 0.1254902
0.1725490 0.2313726 0.2000000
0.3411765 0.3529412 0.2509804
0.5568628 0.4549020 0.2509804
0.7215686 0.4862745 0.2392157
0.8352942 0.4862745 0.2196079
0.9176471 0.4745098 0.1960784
0.0470588 0.1254902 0.1176471
0.0823529 0.1764706 0.1843137
0.1921569 0.2941177 0.2745098
0.3803922 0.4352942 0.3294118
0.6117647 0.5607843 0.3137255
0.7647060 0.6196079 0.2666667
0.8627452 0.6352941 0.2392157
0.9294118 0.6352941 0.2196079
0.0627451 0.2078432 0.2000000
0.1098039 0.2941177 0.3019608
0.2470588 0.4313726 0.4117647
0.4588236 0.5764706 0.4666667
0.6941177 0.6901961 0.4431373
0.8235295 0.7450981 0.3686275
0.8941177 0.7647060 0.3058824
0.9450981 0.7686275 0.2705882
0.0901961 0.3529412 0.3411765
0.1568628 0.4705883 0.4627451
0.3333333 0.6117647 0.5686275
0.5607843 0.7333333 0.6196079
0.7764707 0.8156863 0.5882353
0.8745099 0.8509805 0.5058824
0.9254903 0.8627452 0.4156863
0.9607844 0.8666667 0.3568628
0.0235294 0.0235294 0.0666667
0.0352941 0.0196078 0.0666667
0.0627451 0.0196078 0.0784314
0.1058824 0.0235294 0.1019608
0.1725490 0.0235294 0.1215686
0.2784314 0.0235294 0.1215686
0.4588236 0.0196078 0.1019608
0.6509804 0.0156863 0.0745098
0.0235294 0.0352941 0.0705882
0.0549020 0.0509804 0.0901961
0.1098039 0.0705882 0.1372549
0.1882353 0.0862745 0.1843137
0.2941177 0.0980392 0.2156863
0.4235294 0.0980392 0.2117647
0.5843138 0.0862745 0.1764706
0.7450981 0.0705882 0.1294118
0.0274510 0.0509804 0.0784314
0.0588235 0.0784314 0.1058824
0.1333333 0.1215686 0.1725490
0.2392157 0.1686275 0.2431373
0.3803922 0.2039216 0.2901961
0.5372549 0.2156863 0.2901961
0.6941177 0.2078432 0.2588235
0.8274511 0.1921569 0.2078432
0.0313726 0.0705882 0.0901961
0.0627451 0.0980392 0.1215686
0.1372549 0.1686275 0.2000000
0.2666667 0.2509804 0.2862745
0.4392157 0.3215686 0.3450980
0.6235294 0.3529412 0.3490196
0.7725491 0.3607843 0.3254902
0.8862746 0.3450980 0.2823530
0.0392157 0.0941177 0.1098039
0.0627451 0.1176471 0.1372549
0.1333333 0.2078432 0.2313726
0.2745098 0.3254902 0.3294118
0.4862745 0.4470589 0.3882353
0.6823530 0.5019608 0.3882353
0.8196079 0.5215687 0.3686275
0.9137256 0.5176471 0.3372549
0.0470588 0.1254902 0.1450980
0.0705882 0.1529412 0.1803922
0.1372549 0.2549020 0.2901961
0.2901961 0.4000000 0.4039216
0.5294118 0.5568628 0.4588236
0.7215686 0.6352941 0.4274510
0.8431373 0.6666667 0.4000000
0.9254903 0.6745098 0.3725490
0.0588235 0.1882353 0.2117647
0.0862745 0.2392157 0.2745098
0.1725490 0.3725490 0.4078432
0.3529412 0.5333334 0.5294118
0.6117647 0.6862745 0.5803922
0.7843138 0.7568628 0.5294118
0.8745099 0.7843138 0.4705883
0.9372550 0.7960785 0.4274510
0.0784314 0.2980392 0.3294118
0.1098039 0.3882353 0.4196079
0.2352941 0.5372549 0.5568628
0.4509804 0.6901961 0.6666667
0.7098039 0.8117648 0.7019608
0.8431373 0.8588236 0.6509804
0.9058824 0.8784314 0.5725490
0.9529412 0.8862746 0.5137255
0.0235294 0.0235294 0.0823529
0.0392157 0.0235294 0.0823529
0.0549020 0.0235294 0.0901961
0.0784314 0.0235294 0.1019608
0.1176471 0.0235294 0.1254902
0.1725490 0.0274510 0.1372549
0.2862745 0.0274510 0.1254902
0.4705883 0.0235294 0.1058824
0.0274510 0.0392157 0.0862745
0.0470588 0.0431373 0.1019608
0.0862745 0.0549020 0.1333333
0.1372549 0.0705882 0.1764706
0.2117647 0.0823529 0.2274510
0.2980392 0.0862745 0.2392157
0.4196079 0.0823529 0.2117647
0.5921569 0.0705882 0.1686275
0.0313726 0.0549020 0.0980392
0.0549020 0.0666667 0.1176471
0.1019608 0.0941177 0.1686275
0.1764706 0.1333333 0.2431373
0.2823530 0.1686275 0.3254902
0.4156863 0.1882353 0.3450980
0.5607843 0.1921569 0.3176471
0.7215686 0.1882353 0.2745098
0.0352941 0.0745098 0.1176471
0.0588235 0.0901961 0.1372549
0.1098039 0.1333333 0.1960784
0.2000000 0.2000000 0.2941177
0.3333333 0.2784314 0.4156863
0.5176471 0.3294118 0.4431373
0.6862745 0.3490196 0.4274510
0.8313726 0.3568628 0.3921569
0.0392157 0.0980392 0.1490196
0.0627451 0.1137255 0.1647059
0.1058824 0.1647059 0.2274510
0.2039216 0.2627451 0.3411765
0.3686275 0.4000000 0.4980392
0.6039216 0.4901961 0.5254902
0.7803922 0.5333334 0.5215687
0.9019608 0.5490196 0.4941177
0.0470588 0.1333333 0.1921569
0.0666667 0.1490196 0.2078432
0.1019608 0.2078432 0.2745098
0.2078432 0.3333333 0.4039216
0.3960785 0.5176471 0.5725490
0.6509804 0.6274510 0.5803922
0.8117648 0.6784314 0.5686275
0.9176471 0.6980392 0.5411765
0.0588235 0.1882353 0.2549020
0.0745098 0.2156863 0.2901961
0.1176471 0.3019608 0.3764706
0.2470588 0.4549020 0.5176471
0.4784314 0.6509804 0.6784314
0.7176471 0.7529413 0.6745098
0.8470589 0.7960785 0.6352941
0.9294118 0.8117648 0.5960785
0.0705882 0.2666667 0.3490196
0.0901961 0.3215686 0.4039216
0.1490196 0.4431373 0.5098040
0.3137255 0.6078432 0.6470588
0.6000000 0.7843138 0.7803922
0.7960785 0.8549020 0.7686275
0.8862746 0.8862746 0.7215686
0.9411765 0.8980393 0.6705883
0.0274510 0.0274510 0.0980392
0.0392157 0.0235294 0.0980392
0.0549020 0.0235294 0.1019608
0.0705882 0.0235294 0.1098039
0.0901961 0.0235294 0.1176471
0.1215686 0.0274510 0.1372549
0.1764706 0.0313726 0.1450980
0.3019608 0.0274510 0.1411765
0.0274510 0.0392157 0.1019608
0.0431373 0.0431373 0.1098039
0.0666667 0.0470588 0.1254902
0.0980392 0.0509804 0.1490196
0.1372549 0.0588235 0.1803922
0.1882353 0.0666667 0.2313726
0.2627451 0.0705882 0.2274510
0.4078432 0.0705882 0.2078432
0.0313726 0.0588235 0.1176471
0.0470588 0.0627451 0.1254902
0.0784314 0.0745098 0.1529412
0.1215686 0.0901961 0.1960784
0.1803922 0.1176471 0.2588235
0.2666667 0.1490196 0.3490196
0.3882353 0.1647059 0.3568628
0.5529412 0.1764706 0.3333333
0.0392157 0.0823529 0.1490196
0.0549020 0.0862745 0.1568628
0.0862745 0.1058824 0.1921569
0.1372549 0.1411765 0.2509804
0.2156863 0.1960784 0.3450980
0.3529412 0.2705882 0.4784314
0.5254902 0.3137255 0.4941177
0.7098039 0.3411765 0.4784314
0.0431373 0.1098039 0.1960784
0.0627451 0.1176471 0.2078432
0.0901961 0.1450980 0.2431373
0.1450980 0.2000000 0.3137255
0.2470588 0.2941177 0.4313726
0.4431373 0.4274510 0.5960785
0.6588235 0.5019608 0.6235294
0.8352942 0.5450981 0.6078432
0.0509804 0.1450980 0.2549020
0.0666667 0.1568628 0.2666667
0.0901961 0.1921569 0.3098039
0.1490196 0.2705882 0.3921569
0.2666667 0.4000000 0.5215687
0.5254902 0.5803922 0.6745098
0.7450981 0.6666667 0.6941177
0.8941177 0.7098039 0.6823530
0.0588235 0.2039216 0.3294118
0.0745098 0.2196079 0.3490196
0.0980392 0.2745098 0.4000000
0.1686275 0.3803922 0.4980392
0.3098039 0.5411765 0.6313726
0.6117647 0.7215686 0.7568628
0.7960785 0.7921569 0.7568628
0.9137256 0.8196079 0.7333333
0.0666667 0.2705882 0.4078432
0.0823529 0.3019608 0.4431373
0.1137255 0.3843138 0.5137255
0.2078432 0.5215687 0.6196079
0.3921569 0.6980392 0.7450981
0.7176471 0.8352942 0.8313726
0.8549020 0.8823530 0.8196079
0.9294118 0.9019608 0.7882354
0.0274510 0.0274510 0.1137255
0.0392157 0.0274510 0.1137255
0.0549020 0.0274510 0.1176471
0.0705882 0.0274510 0.1215686
0.0823529 0.0274510 0.1294118
0.1019608 0.0274510 0.1411765
0.1333333 0.0274510 0.1647059
0.2078432 0.0313726 0.1803922
0.0313726 0.0392157 0.1215686
0.0431373 0.0392157 0.1254902
0.0588235 0.0431373 0.1333333
0.0784314 0.0431373 0.1450980
0.1019608 0.0470588 0.1607843
0.1294118 0.0509804 0.1960784
0.1764706 0.0588235 0.2431373
0.2705882 0.0627451 0.2588235
0.0352941 0.0588235 0.1411765
0.0470588 0.0588235 0.1450980
0.0666667 0.0627451 0.1607843
0.0901961 0.0745098 0.1843137
0.1254902 0.0862745 0.2196079
0.1725490 0.1058824 0.2862745
0.2509804 0.1372549 0.3647059
0.3843138 0.1607843 0.3960785
0.0392157 0.0823529 0.1803922
0.0549020 0.0862745 0.1843137
0.0745098 0.0941177 0.2039216
0.1019608 0.1137255 0.2392157
0.1450980 0.1450980 0.2980392
0.2235294 0.2000000 0.4039216
0.3607843 0.2666667 0.5098040
0.5372549 0.3215686 0.5568628
0.0470588 0.1176471 0.2352941
0.0627451 0.1215686 0.2470588
0.0823529 0.1372549 0.2745098
0.1137255 0.1725490 0.3176471
0.1686275 0.2313726 0.3921569
0.2901961 0.3294118 0.5294118
0.4901961 0.4470589 0.6509804
0.6980392 0.5294118 0.7019608
0.0509804 0.1607843 0.3176471
0.0666667 0.1725490 0.3294118
0.0862745 0.1960784 0.3647059
0.1176471 0.2470588 0.4196079
0.1843137 0.3333333 0.5019608
0.3568628 0.4784314 0.6313726
0.6039216 0.6196079 0.7411765
0.8117648 0.7058824 0.7843138
0.0588235 0.2196079 0.4000000
0.0745098 0.2352941 0.4196079
0.0901961 0.2745098 0.4588236
0.1294118 0.3490196 0.5254902
0.2117647 0.4705883 0.6196079
0.4235294 0.6274510 0.7372549
0.6823530 0.7529413 0.8078432
0.8705883 0.8235295 0.8274511
0.0627451 0.2823530 0.4784314
0.0784314 0.3058824 0.5058824
0.0980392 0.3647059 0.5529412
0.1529412 0.4666667 0.6274510
0.2666667 0.6117647 0.7254902
0.5176471 0.7647060 0.8235295
0.7607844 0.8588236 0.8666667
0.9137256 0.9019608 0.8666667
0.0313726 0.0274510 0.1333333
0.0431373 0.0274510 0.1333333
0.0549020 0.0274510 0.1372549
0.0705882 0.0274510 0.1411765
0.0823529 0.0274510 0.1450980
0.0980392 0.0274510 0.1529412
0.1215686 0.0274510 0.1803922
0.1568628 0.0313726 0.2117647
0.0313726 0.0392157 0.1411765
0.0431373 0.0431373 0.1411765
0.0588235 0.0431373 0.1490196
0.0745098 0.0431373 0.1529412
0.0901961 0.0431373 0.1647059
0.1058824 0.0470588 0.1843137
0.1333333 0.0509804 0.2431373
0.1882353 0.0588235 0.3019608
0.0352941 0.0588235 0.1647059
0.0509804 0.0627451 0.1725490
0.0627451 0.0627451 0.1803922
0.0823529 0.0666667 0.1921569
0.1019608 0.0705882 0.2156863
0.1254902 0.0823529 0.2549020
0.1725490 0.1098039 0.3490196
0.2588235 0.1411765 0.4352942
0.0431373 0.0862745 0.2117647
0.0549020 0.0901961 0.2235294
0.0705882 0.0941177 0.2352941
0.0901961 0.1058824 0.2588235
0.1137255 0.1215686 0.2941177
0.1529412 0.1529412 0.3607843
0.2352941 0.2196079 0.4862745
0.3764706 0.2901961 0.5882353
0.0470588 0.1215686 0.2823530
0.0627451 0.1294118 0.2980392
0.0784314 0.1411765 0.3215686
0.0980392 0.1647059 0.3529412
0.1254902 0.2039216 0.4039216
0.1921569 0.2627451 0.4862745
0.3333333 0.3764706 0.6313726
0.5294118 0.4862745 0.7333333
0.0549020 0.1686275 0.3764706
0.0666667 0.1843137 0.4000000
0.0823529 0.2078432 0.4274510
0.1058824 0.2470588 0.4705883
0.1411765 0.3098039 0.5294118
0.2392157 0.4117647 0.6117647
0.4352942 0.5529412 0.7411765
0.6666667 0.6745098 0.8235295
0.0549020 0.2274510 0.4666667
0.0705882 0.2470588 0.4901961
0.0862745 0.2823530 0.5254902
0.1098039 0.3411765 0.5725490
0.1607843 0.4313726 0.6392157
0.2823530 0.5607843 0.7254902
0.5294118 0.6980392 0.8196079
0.7607844 0.8000001 0.8745099
0.0549020 0.2901961 0.5490196
0.0705882 0.3137255 0.5686275
0.0862745 0.3607843 0.6039216
0.1176471 0.4392157 0.6588235
0.1882353 0.5529412 0.7294118
0.3490196 0.6941177 0.8117648
0.6156863 0.8117648 0.8784314
0.8313726 0.8862746 0.9098040
