Assets/Nexweron/LutKit/LutPack/LUTs/3Dx32/LUTx32_Epic.cube
LUT_3D_SIZE 5
DOMAIN_MIN 0.000000 0.000000 0.000000
DOMAIN_MAX 0.903226 0.903226 0.903226
0.0000000 0.0000000 0.0000000
0.1333333 0.0000000 0.0000000
0.3921569 0.0000000 0.0000000
0.5843138 0.0000000 0.0000000
0.8627452 0.0000000 0.0000000
0.0000000 0.1254902 0.0000000
0.1333333 0.1254902 0.0000000
0.3921569 0.1254902 0.0000000
0.5843138 0.1254902 0.0000000
0.8627452 0.1254902 0.0000000
0.0000000 0.4000000 0.0000000
0.1333333 0.4000000 0.0000000
0.3921569 0.4039216 0.0000000
0.5843138 0.4000000 0.0000000
0.8627452 0.4000000 0.0000000
0.0000000 0.7137255 0.0000000
0.1333333 0.7137255 0.0000000
0.3921569 0.7137255 0.0000000
0.5843138 0.7137255 0.0000000
0.8627452 0.7137255 0.0000000
0.0000000 0.9686275 0.0000000
0.1333333 0.9686275 0.0000000
0.3921569 0.9686275 0.0000000
0.5843138 0.9686275 0.0000000
0.8627452 0.9686275 0.0000000
0.0000000 0.0117647 0.0745098
0.1372549 0.0000000 0.1254902
0.4039216 0.0000000 0.1176471
0.6078432 0.0000000 0.1019608
0.8745099 0.0000000 0.1176471
0.0000000 0.1254902 0.1137255
0.1019608 0.1294118 0.1372549
0.4392157 0.0941177 0.1294118
0.6627451 0.0117647 0.0980392
0.9058824 0.0117647 0.0941177
0.0000000 0.4000000 0.1294118
0.0784314 0.4117647 0.1254902
0.4039216 0.4039216 0.1098039
0.6392157 0.3607843 0.0705882
0.9725491 0.1843137 0.0196078
0.0000000 0.7137255 0.1294118
0.0117647 0.7215686 0.0980392
0.3254902 0.7254902 0.0705882
0.6000000 0.7176471 0.0588235
0.9098040 0.6941177 0.0117647
0.0000000 0.9686275 0.1294118
0.0117647 0.9686275 0.0901961
0.1333333 0.9764706 0.0117647
0.5529412 0.9725491 0.0117647
0.8666667 0.9686275 0.0117647
0.0000000 0.0705882 0.2470588
0.0431373 0.0000000 0.5137255
0.4117647 0.0000000 0.4274510
0.6274510 0.0000000 0.3960785
0.8901961 0.0000000 0.4156863
0.0000000 0.1607843 0.3098039
0.0117647 0.1529412 0.4392157
0.4274510 0.0117647 0.6078432
0.6588235 0.0117647 0.5019608
0.9176471 0.0117647 0.4509804
0.0000000 0.4078432 0.4117647
0.0117647 0.4156863 0.4705883
0.3450980 0.4117647 0.4980392
0.6470588 0.3450980 0.4980392
0.9803922 0.1176471 0.4980392
0.0000000 0.7137255 0.4431373
0.0117647 0.7176471 0.4588236
0.3058824 0.7254902 0.4705883
0.6235294 0.7137255 0.4117647
0.9215687 0.6901961 0.4039216
0.0000000 0.9686275 0.4431373
0.0117647 0.9686275 0.4313726
0.0235294 0.9764706 0.3725490
0.5450981 0.9764706 0.2745098
0.8901961 0.9686275 0.2392157
0.0000000 0.1411765 0.5254902
0.0117647 0.1019608 0.6313726
0.3568628 0.0000000 0.6941177
0.6000000 0.0000000 0.6588235
0.8745099 0.0000000 0.6666667
0.0000000 0.2235294 0.5764706
0.0117647 0.2156863 0.6235294
0.2980392 0.0431373 0.7960785
0.6196079 0.0117647 0.7098039
0.8980393 0.0117647 0.6862745
0.0000000 0.4392157 0.6352941
0.0117647 0.4392157 0.6549020
0.0705882 0.4117647 0.7725491
0.6000000 0.3058824 0.7803922
0.9725491 0.0313726 0.7803922
0.0000000 0.7176471 0.6666667
0.0117647 0.7176471 0.6784314
0.0235294 0.7254902 0.7215686
0.5607843 0.7215686 0.6901961
0.8980393 0.6862745 0.6901961
0.0000000 0.9686275 0.6745098
0.0117647 0.9686275 0.6745098
0.0235294 0.9764706 0.6784314
0.5019608 0.9764706 0.6823530
0.8705883 0.9686275 0.6627451
0.0000000 0.1803922 0.6235294
0.0117647 0.1450980 0.6745098
0.3137255 0.0156863 0.8078432
0.5921569 0.0000000 0.7686275
0.8705883 0.0000000 0.7686275
0.0000000 0.2549020 0.6431373
0.0117647 0.2470588 0.6705883
0.2666667 0.1568628 0.8078432
0.5960785 0.0901961 0.7960785
0.8862746 0.0392157 0.8000001
0.0000000 0.4627451 0.6823530
0.0117647 0.4627451 0.7019608
0.1568628 0.4431373 0.8078432
0.5803922 0.4000000 0.8000001
0.8862746 0.3568628 0.8000001
0.0000000 0.7215686 0.7372549
0.0117647 0.7215686 0.7568628
0.1960784 0.7254902 0.8078432
0.5490196 0.7254902 0.8000001
0.8823530 0.6980392 0.8000001
0.0000000 0.9686275 0.7764707
0.0117647 0.9686275 0.7843138
0.1098039 0.9725491 0.8039216
0.5450981 0.9725491 0.8000001
0.8588236 0.9686275 0.7960785
