Assets/Nexweron/LutKit/LutPack/LUTs/3Dx32/LUTx32_Flora.cube
LUT_3D_SIZE 5
DOMAIN_MIN 0.000000 0.000000 0.000000
DOMAIN_MAX 0.903226 0.903226 0.903226
0.0000000 0.0000000 0.0000000
0.0588235 0.0000000 0.0000000
0.2352941 0.0000000 0.0000000
0.5647059 0.0000000 0.0000000
0.9137256 0.0000000 0.0000000
0.0000000 0.1450980 0.0000000
0.1215686 0.1411765 0.0000000
0.2823530 0.1725490 0.0000000
0.5647059 0.0901961 0.0000000
0.9058824 0.0000000 0.0000000
0.0274510 0.3725490 0.0000000
0.1921569 0.3725490 0.0000000
0.3882353 0.3686275 0.0000000
0.6156863 0.3725490 0.0000000
0.9254903 0.3568628 0.0000000
0.0000000 0.5921569 0.0000000
0.0000000 0.5882353 0.0000000
0.3647059 0.5921569 0.0000000
0.6431373 0.5960785 0.0000000
0.9450981 0.6000000 0.0000000
0.0000000 0.8352942 0.0000000
0.0000000 0.8352942 0.0000000
0.1529412 0.8313726 0.0000000
0.6196079 0.8470589 0.0000000
0.9529412 0.8627452 0.0000000
0.0000000 0.0000000 0.0862745
0.0509804 0.0000000 0.1058824
0.2274510 0.0000000 0.1215686
0.5647059 0.0000000 0.0000000
0.9137256 0.0000000 0.0000000
0.0000000 0.1058824 0.1137255
0.0980392 0.1215686 0.1137255
0.2745098 0.1647059 0.1098039
0.5647059 0.0823529 0.0000000
0.9058824 0.0000000 0.0000000
0.0235294 0.3686275 0.0000000
0.1882353 0.3686275 0.0000000
0.3882353 0.3647059 0.0000000
0.6156863 0.3686275 0.0000000
0.9254903 0.3568628 0.0000000
0.0000000 0.5921569 0.0000000
0.0000000 0.5882353 0.0000000
0.3647059 0.5921569 0.0000000
0.6431373 0.5960785 0.0000000
0.9450981 0.6000000 0.0000000
0.0000000 0.8352942 0.0000000
0.0000000 0.8313726 0.0000000
0.1529412 0.8274511 0.0000000
0.6156863 0.8470589 0.0000000
0.9490197 0.8588236 0.0000000
0.0000000 0.0000000 0.1843137
0.0901961 0.0000000 0.2078432
0.2078432 0.0000000 0.2470588
0.5490196 0.0000000 0.2862745
0.9137256 0.0000000 0.2941177
0.0000000 0.1411765 0.2235294
0.1294118 0.1411765 0.2352941
0.2313726 0.1254902 0.2509804
0.5490196 0.0509804 0.2745098
0.9058824 0.0000000 0.2901961
0.0000000 0.3254902 0.2784314
0.0980392 0.3294118 0.2627451
0.3647059 0.3490196 0.2666667
0.6196079 0.3568628 0.2588235
0.9254903 0.3333333 0.2313726
0.0000000 0.5882353 0.2901961
0.0000000 0.5882353 0.2862745
0.3568628 0.5960785 0.2431373
0.6431373 0.5960785 0.1725490
0.9450981 0.5960785 0.0313726
0.0000000 0.8313726 0.0000000
0.0000000 0.8313726 0.0000000
0.1333333 0.8274511 0.0000000
0.6156863 0.8431373 0.0000000
0.9490197 0.8588236 0.0000000
0.0431373 0.0000000 0.3137255
0.1960784 0.0000000 0.3333333
0.2901961 0.0000000 0.3843138
0.5176471 0.0000000 0.4470589
0.9019608 0.0000000 0.4823530
0.0274510 0.2039216 0.3529412
0.2235294 0.1843137 0.3686275
0.3137255 0.1568628 0.3960785
0.5137255 0.0039216 0.4431373
0.8941177 0.0000000 0.4784314
0.0000000 0.3607843 0.4352942
0.0941177 0.3607843 0.4352942
0.3882353 0.3490196 0.4509804
0.6078432 0.3254902 0.4705883
0.9215687 0.2823530 0.4705883
0.0000000 0.5843138 0.5058824
0.0000000 0.5803922 0.5058824
0.2941177 0.5960785 0.4862745
0.6509804 0.5960785 0.5098040
0.9490197 0.5647059 0.4862745
0.0000000 0.8352942 0.5372549
0.0000000 0.8352942 0.5333334
0.0823529 0.8313726 0.5176471
0.5843138 0.8509805 0.4745098
0.9529412 0.8549020 0.4627451
0.1176471 0.0352941 0.4392157
0.3019608 0.0235294 0.4509804
0.4117647 0.0000000 0.5019608
0.5921569 0.0000000 0.5725490
0.9098040 0.0000000 0.6156863
0.0784314 0.2509804 0.4666667
0.2941177 0.2196079 0.4745098
0.4117647 0.1450980 0.5098040
0.5843138 0.0000000 0.5686275
0.9019608 0.0000000 0.6117647
0.0117647 0.3843138 0.5529412
0.0980392 0.3764706 0.5568628
0.4000000 0.3372549 0.5843138
0.6313726 0.3176471 0.6156863
0.9215687 0.2666667 0.6313726
0.0000000 0.5921569 0.6470588
0.0000000 0.5921569 0.6470588
0.2901961 0.5921569 0.6627451
0.6470588 0.5725490 0.6823530
0.9490197 0.5490196 0.6784314
0.0000000 0.8392158 0.7098039
0.0000000 0.8392158 0.7058824
0.0627451 0.8352942 0.7019608
0.5568628 0.8549020 0.7098039
0.9529412 0.8588236 0.7215686
