Assets/Nexweron/LutKit/LutPack/LUTs/3Dx32/LUTx32_Romantic.cube
LUT_3D_SIZE 5
DOMAIN_MIN 0.000000 0.000000 0.000000
DOMAIN_MAX 0.903226 0.903226 0.903226
0.0509804 0.0509804 0.0509804
0.1843137 0.0705882 0.0549020
0.5294118 0.1333333 0.0235294
0.8588236 0.2196079 0.0000000
0.9960785 0.3098039 0.1176471
0.0509804 0.1098039 0.0705882
0.1882353 0.1764706 0.0470588
0.5490196 0.2666667 0.0039216
0.8627452 0.3294118 0.0000000
0.9960785 0.3882353 0.1450980
0.0000000 0.2823530 0.1137255
0.0549020 0.3176471 0.1019608
0.5529412 0.5098040 0.0000000
0.8784314 0.5450981 0.0901961
0.9960785 0.5529412 0.2392157
0.0000000 0.5215687 0.2000000
0.0117647 0.5215687 0.1921569
0.3254902 0.6352941 0.1333333
0.8352942 0.7764707 0.0000000
0.9960785 0.7529413 0.3686275
0.0000000 0.8117648 0.3843138
0.0117647 0.8117648 0.3725490
0.2274510 0.8313726 0.3843138
0.6431373 0.8941177 0.3803922
0.9764706 0.9294118 0.4588236
0.0078431 0.0784314 0.1647059
0.2078432 0.0823529 0.1803922
0.5254902 0.0392157 0.1921569
0.8431373 0.1764706 0.2078432
0.9960785 0.3176471 0.2745098
0.0000000 0.1764706 0.1843137
0.2196079 0.1882353 0.1921569
0.5450981 0.2352941 0.2039216
0.8509805 0.3098039 0.2235294
0.9960785 0.3960785 0.2901961
0.0000000 0.3568628 0.2392157
0.1568628 0.3607843 0.2313726
0.5764706 0.5176471 0.1764706
0.8705883 0.5411765 0.2862745
0.9960785 0.5647059 0.3686275
0.0000000 0.5764706 0.3294118
0.0117647 0.5764706 0.3098039
0.3647059 0.6509804 0.2862745
0.8431373 0.7803922 0.2627451
0.9960785 0.7647060 0.4901961
0.0000000 0.8274511 0.4784314
0.0117647 0.8274511 0.4705883
0.3215686 0.8313726 0.4705883
0.6627451 0.8941177 0.4745098
0.9725491 0.9333334 0.5411765
0.0000000 0.1921569 0.5137255
0.1215686 0.1529412 0.5058824
0.5764706 0.2000000 0.4941177
0.8235295 0.2823530 0.4901961
0.9960785 0.3647059 0.4980392
0.0000000 0.2980392 0.5176471
0.0509804 0.2627451 0.5137255
0.5764706 0.3058824 0.4941177
0.8078432 0.3607843 0.4941177
0.9960785 0.4392157 0.5098040
0.0000000 0.4980392 0.5294118
0.0274510 0.5058824 0.5294118
0.5647059 0.4980392 0.5058824
0.8352942 0.5450981 0.5254902
0.9960785 0.6039216 0.5725490
0.0000000 0.6823530 0.5333334
0.2627451 0.6862745 0.5450981
0.4980392 0.6666667 0.5411765
0.8431373 0.7803922 0.5647059
0.9882354 0.7921569 0.6745098
0.0000000 0.8627452 0.6156863
0.3490196 0.8588236 0.6392157
0.4980392 0.8509805 0.6274510
0.7058824 0.8901961 0.6431373
0.9686275 0.9333334 0.6862745
0.0000000 0.3411765 0.8000001
0.0117647 0.3215686 0.7921569
0.5098040 0.3450980 0.7647060
0.8549020 0.4509804 0.7568628
0.9843138 0.5882353 0.7450981
0.0000000 0.4156863 0.7960785
0.0117647 0.4078432 0.7921569
0.5215687 0.4274510 0.7686275
0.8470589 0.5137255 0.7568628
0.9725491 0.6196079 0.7490196
0.0000000 0.5764706 0.7960785
0.0117647 0.5803922 0.7960785
0.5450981 0.5921569 0.7803922
0.8352942 0.6431373 0.7607844
0.9568628 0.6862745 0.7607844
0.0000000 0.7647060 0.7960785
0.1882353 0.7686275 0.7960785
0.5686275 0.7725491 0.7921569
0.8117648 0.7686275 0.7764707
0.9647059 0.8000001 0.7921569
0.1019608 0.9137256 0.7803922
0.3568628 0.9137256 0.7843138
0.6039216 0.8980393 0.7960785
0.7686275 0.8784314 0.8000001
0.9607844 0.9333334 0.8313726
0.1450980 0.5568628 0.9490197
0.3725490 0.5803922 0.9450981
0.6156863 0.6313726 0.9333334
0.8039216 0.6627451 0.9215687
0.9725491 0.7333333 0.9137256
0.2156863 0.6000000 0.9490197
0.4000000 0.6235294 0.9450981
0.6313726 0.6705883 0.9333334
0.8078432 0.6941177 0.9215687
0.9686275 0.7607844 0.9137256
0.2196079 0.6745098 0.9490197
0.4039216 0.6941177 0.9450981
0.6509804 0.7411765 0.9372550
0.8156863 0.7647060 0.9215687
0.9607844 0.8039216 0.9176471
0.2980392 0.7921569 0.9450981
0.4274510 0.8000001 0.9450981
0.6352941 0.8196079 0.9411765
0.8235295 0.8470589 0.9333334
0.9529412 0.8666667 0.9215687
0.3607843 0.9137256 0.9411765
0.4705883 0.9176471 0.9411765
0.6588235 0.9254903 0.9411765
0.8274511 0.9294118 0.9411765
0.9450981 0.9333334 0.9333334
