Assets/Nexweron/LutKit/LutPack/LUTs/3Dx32/LUTx32_Onyx.cube
LUT_3D_SIZE 5
DOMAIN_MIN 0.000000 0.000000 0.000000
DOMAIN_MAX 0.903226 0.903226 0.903226
0.0000000 0.0000000 0.0000000
0.0862745 0.0000000 0.0000000
0.1764706 0.0000000 0.0000000
0.3019608 0.0000000 0.0000000
0.4666667 0.0000000 0.0000000
0.0000000 0.0862745 0.0000000
0.1019608 0.1019608 0.0000000
0.2509804 0.1294118 0.0000000
0.4823530 0.1411765 0.0078431
0.7529413 0.1450980 0.0078431
0.0156863 0.2941177 0.0156863
0.1686275 0.3411765 0.0235294
0.3921569 0.3921569 0.0352941
0.7137255 0.4509804 0.0431373
0.9450981 0.5019608 0.0627451
0.0470588 0.7411765 0.0470588
0.2549020 0.7921569 0.0666667
0.5450981 0.8078432 0.0549020
0.8235295 0.8235295 0.0431373
0.9607844 0.8392158 0.0313726
0.0588235 0.9607844 0.0588235
0.2666667 0.9607844 0.0509804
0.5725490 0.9607844 0.0196078
0.8588236 0.9607844 0.0000000
0.9607844 0.9607844 0.0000000
0.0000000 0.0000000 0.0862745
0.0862745 0.0000000 0.0862745
0.1764706 0.0000000 0.0862745
0.3176471 0.0000000 0.0862745
0.4941177 0.0000000 0.1058824
0.0000000 0.0862745 0.0862745
0.1098039 0.1098039 0.1098039
0.2627451 0.1333333 0.1333333
0.5098040 0.1450980 0.1450980
0.7803922 0.1568628 0.1568628
0.0196078 0.3098039 0.1529412
0.1764706 0.3607843 0.1764706
0.4117647 0.4117647 0.2000000
0.7372549 0.4705883 0.2274510
0.9607844 0.5176471 0.2509804
0.0549020 0.7607844 0.2352941
0.2627451 0.8039216 0.2627451
0.5529412 0.8156863 0.2549020
0.8313726 0.8313726 0.2509804
0.9607844 0.8431373 0.2431373
0.0549020 0.9607844 0.2666667
0.2627451 0.9607844 0.2627451
0.5764706 0.9607844 0.2313726
0.8588236 0.9607844 0.2117647
0.9607844 0.9607844 0.1921569
0.0000000 0.0000000 0.1764706
0.0862745 0.0000000 0.1764706
0.1764706 0.0000000 0.1764706
0.3294118 0.0000000 0.2000000
0.5176471 0.0000000 0.2352941
0.0000000 0.0901961 0.2078432
0.1215686 0.1215686 0.2431373
0.2745098 0.1411765 0.2745098
0.5372549 0.1490196 0.3098039
0.8078432 0.1686275 0.3568628
0.0196078 0.3215686 0.3215686
0.1843137 0.3764706 0.3764706
0.4313726 0.4313726 0.4313726
0.7490196 0.4862745 0.4862745
0.9607844 0.5254902 0.5254902
0.0549020 0.7725491 0.5098040
0.2627451 0.8078432 0.5490196
0.5529412 0.8156863 0.5529412
0.8313726 0.8313726 0.5607843
0.9607844 0.8431373 0.5647059
0.0470588 0.9607844 0.5803922
0.2549020 0.9607844 0.5882353
0.5686275 0.9607844 0.5686275
0.8588236 0.9607844 0.5529412
0.9607844 0.9607844 0.5372549
0.0000000 0.0000000 0.2745098
0.0862745 0.0000000 0.2745098
0.1764706 0.0000000 0.2980392
0.3529412 0.0000000 0.3529412
0.5490196 0.0000000 0.3921569
0.0000000 0.1058824 0.3607843
0.1294118 0.1294118 0.4117647
0.2862745 0.1450980 0.4862745
0.5647059 0.1529412 0.5647059
0.8313726 0.1803922 0.6392157
0.0196078 0.3372549 0.5843138
0.1921569 0.3960785 0.6588235
0.4509804 0.4509804 0.7137255
0.7647060 0.5019608 0.7647060
0.9607844 0.5333334 0.7960785
0.0588235 0.7843138 0.7843138
0.2627451 0.8156863 0.8156863
0.5568628 0.8235295 0.8235295
0.8352942 0.8352942 0.8352942
0.9607844 0.8470589 0.8470589
0.0392157 0.9607844 0.8509805
0.2470588 0.9607844 0.8627452
0.5647059 0.9607844 0.8549020
0.8549020 0.9607844 0.8549020
0.9607844 0.9607844 0.8549020
0.0000000 0.0000000 0.3607843
0.0862745 0.0000000 0.3686275
0.1843137 0.0000000 0.4235294
0.3686275 0.0000000 0.4980392
0.5764706 0.0000000 0.5764706
0.0000000 0.1137255 0.5137255
0.1294118 0.1294118 0.6117647
0.2941177 0.1450980 0.7098039
0.5882353 0.1607843 0.7843138
0.8549020 0.1921569 0.8549020
0.0196078 0.3529412 0.8000001
0.2000000 0.4156863 0.8705883
0.4705883 0.4705883 0.9176471
0.7764707 0.5137255 0.9568628
0.9607844 0.5450981 0.9607844
0.0588235 0.7960785 0.9607844
0.2666667 0.8235295 0.9607844
0.5607843 0.8274511 0.9607844
0.8392158 0.8392158 0.9607844
0.9607844 0.8470589 0.9607844
0.0352941 0.9607844 0.9607844
0.2431373 0.9607844 0.9607844
0.5607843 0.9607844 0.9607844
0.8549020 0.9607844 0.9607844
0.9607844 0.9607844 0.9607844
