Assets/Nexweron/LutKit/LutPack/LUTs/3Dx32/LUTx32_Adventure.cube
LUT_3D_SIZE 5
DOMAIN_MIN 0.000000 0.000000 0.000000
DOMAIN_MAX 0.903226 0.903226 0.903226
0.0000000 0.0000000 0.0000000
0.1058824 0.0000000 0.0000000
0.4000000 0.0000000 0.0000000
0.6549020 0.0000000 0.0000000
0.8784314 0.0000000 0.0000000
0.0000000 0.0901961 0.0000000
0.1372549 0.0980392 0.0000000
0.4352942 0.0901961 0.0000000
0.6941177 0.0862745 0.0000000
0.9215687 0.0980392 0.0000000
0.0000000 0.3686275 0.0000000
0.1490196 0.3882353 0.0000000
0.4352942 0.4039216 0.0000000
0.6941177 0.4078432 0.0000000
0.9254903 0.4196079 0.0000000
0.0000000 0.6352941 0.0000000
0.1686275 0.6588235 0.0000000
0.4627451 0.6666667 0.0000000
0.7176471 0.6745098 0.0000000
0.9411765 0.6823530 0.0000000
0.0000000 0.9176471 0.0000000
0.1647059 0.9294118 0.0000000
0.4549020 0.9254903 0.0000000
0.7098039 0.9176471 0.0000000
0.9294118 0.9176471 0.0000000
0.0000000 0.0000000 0.0823529
0.1098039 0.0000000 0.0862745
0.4000000 0.0000000 0.0784314
0.6588235 0.0000000 0.0705882
0.8784314 0.0000000 0.0745098
0.0000000 0.0941177 0.1215686
0.1372549 0.1019608 0.1490196
0.4352942 0.0980392 0.1450980
0.6941177 0.0941177 0.1411765
0.9215687 0.1058824 0.1490196
0.0000000 0.3725490 0.1372549
0.1803922 0.3882353 0.1686275
0.4392157 0.4078432 0.1725490
0.6901961 0.4156863 0.1607843
0.9215687 0.4313726 0.1647059
0.0000000 0.6431373 0.1529412
0.1921569 0.6588235 0.1803922
0.4823530 0.6705883 0.1882353
0.7215686 0.6784314 0.1803922
0.9372550 0.6901961 0.1764706
0.0000000 0.9215687 0.1450980
0.1764706 0.9333334 0.1647059
0.4627451 0.9294118 0.1686275
0.7137255 0.9215687 0.1607843
0.9333334 0.9176471 0.1607843
0.0000000 0.0000000 0.3843138
0.1019608 0.0000000 0.3882353
0.3960785 0.0000000 0.3882353
0.6509804 0.0000000 0.3803922
0.8784314 0.0000000 0.3882353
0.0000000 0.0941177 0.4392157
0.1333333 0.1019608 0.4549020
0.4274510 0.0980392 0.4549020
0.6901961 0.0941177 0.4509804
0.9215687 0.1098039 0.4588236
0.0000000 0.3803922 0.4313726
0.1686275 0.3960785 0.4470589
0.4313726 0.4156863 0.4627451
0.6862745 0.4196079 0.4627451
0.9176471 0.4352942 0.4627451
0.0000000 0.6470588 0.4470589
0.1960784 0.6627451 0.4705883
0.5058824 0.6627451 0.4862745
0.7215686 0.6784314 0.4823530
0.9254903 0.6941177 0.4745098
0.0000000 0.9215687 0.4392157
0.1803922 0.9294118 0.4509804
0.4705883 0.9254903 0.4549020
0.7176471 0.9176471 0.4549020
0.9294118 0.9176471 0.4627451
0.0000000 0.0000000 0.6627451
0.0941177 0.0000000 0.6705883
0.3882353 0.0000000 0.6666667
0.6470588 0.0000000 0.6627451
0.8745099 0.0000000 0.6705883
0.0000000 0.0862745 0.7176471
0.1254902 0.0980392 0.7333333
0.4235294 0.0980392 0.7333333
0.6862745 0.0941177 0.7294118
0.9176471 0.1098039 0.7333333
0.0000000 0.3843138 0.7176471
0.1411765 0.4078432 0.7215686
0.4274510 0.4196079 0.7254902
0.6784314 0.4235294 0.7333333
0.9137256 0.4352942 0.7333333
0.0000000 0.6509804 0.7215686
0.1803922 0.6666667 0.7372549
0.4901961 0.6705883 0.7411765
0.6823530 0.6941177 0.7176471
0.9058824 0.6980392 0.7294118
0.0000000 0.9215687 0.7137255
0.1764706 0.9294118 0.7215686
0.4705883 0.9215687 0.7176471
0.7254902 0.9098040 0.7176471
0.9215687 0.9098040 0.7333333
0.0000000 0.0000000 0.9019608
0.0862745 0.0000000 0.9098040
0.3843138 0.0000000 0.9058824
0.6431373 0.0000000 0.8980393
0.8705883 0.0000000 0.9058824
0.0000000 0.0862745 0.9568628
0.1176471 0.0980392 0.9686275
0.4196079 0.0980392 0.9647059
0.6823530 0.1019608 0.9607844
0.9176471 0.1137255 0.9647059
0.0000000 0.3882353 0.9568628
0.1294118 0.4117647 0.9607844
0.4235294 0.4235294 0.9607844
0.6823530 0.4274510 0.9607844
0.9137256 0.4392157 0.9647059
0.0000000 0.6588235 0.9607844
0.1607843 0.6784314 0.9725491
0.4588236 0.6823530 0.9686275
0.6941177 0.6901961 0.9568628
0.9058824 0.6980392 0.9568628
0.0000000 0.9215687 0.9568628
0.1686275 0.9294118 0.9607844
0.4627451 0.9215687 0.9529412
0.7215686 0.9098040 0.9411765
0.9058824 0.9137256 0.9450981
