Assets/Nexweron/LutKit/LutPack/LUTs/3Dx32/LUTx32_UltraClarity.cube
LUT_3D_SIZE 5
DOMAIN_MIN 0.000000 0.000000 0.000000
DOMAIN_MAX 0.903226 0.903226 0.903226
0.0039216 0.0039216 0.0039216
0.1058824 0.0039216 0.0039216
0.3882353 0.0000000 0.0000000
0.7803922 0.0000000 0.0039216
0.9411765 0.0862745 0.0588235
0.0000000 0.1019608 0.0039216
0.0901961 0.1019608 0.0039216
0.3921569 0.0705882 0.0039216
0.8078432 0.0509804 0.0039216
0.9529412 0.1372549 0.0705882
0.0000000 0.3372549 0.0039216
0.0509804 0.3490196 0.0039216
0.3098039 0.3294118 0.0039216
0.7843138 0.2823530 0.0039216
0.9529412 0.3098039 0.0470588
0.0039216 0.6980392 0.0039216
0.0431373 0.7254902 0.0039216
0.1372549 0.7294118 0.0039216
0.6823530 0.6901961 0.0039216
0.9529412 0.6666667 0.0392157
0.0549020 0.9333334 0.0313726
0.0980392 0.9450981 0.0392157
0.1960784 0.9490197 0.0431373
0.4313726 0.9529412 0.0470588
0.9529412 0.9529412 0.0588235
0.0000000 0.0000000 0.1254902
0.1019608 0.0000000 0.1019608
0.3843138 0.0000000 0.0784314
0.7843138 0.0000000 0.0627451
0.9411765 0.0862745 0.1019608
0.0000000 0.0941177 0.0941177
0.0901961 0.0941177 0.0980392
0.3960785 0.0666667 0.0862745
0.8117648 0.0509804 0.0784314
0.9529412 0.1411765 0.1294118
0.0000000 0.3372549 0.0470588
0.0509804 0.3529412 0.0549020
0.3137255 0.3333333 0.0549020
0.7921569 0.2862745 0.0549020
0.9568628 0.3176471 0.1058824
0.0039216 0.7058824 0.0431373
0.0470588 0.7333333 0.0470588
0.1372549 0.7411765 0.0509804
0.6901961 0.7019608 0.0509804
0.9568628 0.6784314 0.0823529
0.0588235 0.9372550 0.0666667
0.1019608 0.9490197 0.0784314
0.2000000 0.9529412 0.0862745
0.4470589 0.9529412 0.0901961
0.9529412 0.9529412 0.0980392
0.0000000 0.0039216 0.4666667
0.0627451 0.0039216 0.4470589
0.3686275 0.0000000 0.3647059
0.7725491 0.0000000 0.3058824
0.9411765 0.0823529 0.2941177
0.0000000 0.0549020 0.4431373
0.0627451 0.0588235 0.4470589
0.3843138 0.0549020 0.3803922
0.8078432 0.0509804 0.3372549
0.9529412 0.1372549 0.3372549
0.0000000 0.3098039 0.3176471
0.0509804 0.3294118 0.3333333
0.2980392 0.3098039 0.3176471
0.7921569 0.2627451 0.2980392
0.9568628 0.2941177 0.3137255
0.0039216 0.7058824 0.1411765
0.0470588 0.7294118 0.1490196
0.1372549 0.7372549 0.1568628
0.6901961 0.6980392 0.1647059
0.9568628 0.6784314 0.2117647
0.0588235 0.9411765 0.1529412
0.1019608 0.9490197 0.1647059
0.2000000 0.9529412 0.1764706
0.4470589 0.9568628 0.1803922
0.9568628 0.9568628 0.1882353
0.0000000 0.0039216 0.8352942
0.0470588 0.0039216 0.8313726
0.2823530 0.0039216 0.7960785
0.7411765 0.0039216 0.7215686
0.9411765 0.0627451 0.6666667
0.0000000 0.0549020 0.8392158
0.0509804 0.0588235 0.8470589
0.2980392 0.0588235 0.8235295
0.7803922 0.0509804 0.7607844
0.9529412 0.1215686 0.7215686
0.0000000 0.1568628 0.8078432
0.0509804 0.1647059 0.8274511
0.2313726 0.1647059 0.8196079
0.7843138 0.1529412 0.7607844
0.9568628 0.2313726 0.7215686
0.0039216 0.6627451 0.6627451
0.0470588 0.6941177 0.6901961
0.1333333 0.6980392 0.6980392
0.6588235 0.6705883 0.6745098
0.9568628 0.6549020 0.6588235
0.0588235 0.9411765 0.4235294
0.1058824 0.9529412 0.4705883
0.2000000 0.9529412 0.4823530
0.4117647 0.9568628 0.4823530
0.9568628 0.9568628 0.5058824
0.0000000 0.0156863 0.9529412
0.0431373 0.0156863 0.9529412
0.2000000 0.0117647 0.9490197
0.5843138 0.0078431 0.9450981
0.9372550 0.0039216 0.9372550
0.0000000 0.0666667 0.9568628
0.0509804 0.0705882 0.9568628
0.2313726 0.0666667 0.9568628
0.6235294 0.0588235 0.9568628
0.9529412 0.0549020 0.9529412
0.0000000 0.1529412 0.9529412
0.0470588 0.1607843 0.9568628
0.1647059 0.1607843 0.9607844
0.6274510 0.1568628 0.9568628
0.9568628 0.1529412 0.9568628
0.0039216 0.4784314 0.9490197
0.0470588 0.5137255 0.9568628
0.1333333 0.5215687 0.9568628
0.5333334 0.4941177 0.9568628
0.9568628 0.4588236 0.9568628
0.0235294 0.9411765 0.9411765
0.0666667 0.9490197 0.9529412
0.1568628 0.9529412 0.9529412
0.3411765 0.9568628 0.9568628
0.9490197 0.9529412 0.9529412
